<?xml version="1.0" encoding="UTF-8"?>
<map version="1.10" tiledversion="1.12.1" orientation="orthogonal" renderorder="right-down" width="300" height="50" tilewidth="16" tileheight="16" infinite="0" nextlayerid="31" nextobjectid="318">
 <tileset firstgid="1" source="../tilesets/outside.tsx"/>
 <tileset firstgid="769" source="../tilesets/inside.tsx"/>
 <objectgroup id="15" name="EvilCoins">
  <object id="209" x="224" y="64" width="16" height="16">
   <properties>
    <property name="lifetime" type="float" value="3"/>
   </properties>
  </object>
  <object id="210" x="160" y="64" width="16" height="16">
   <properties>
    <property name="lifetime" type="float" value="3"/>
   </properties>
  </object>
  <object id="257" x="2656" y="288" width="16" height="16">
   <properties>
    <property name="lifetime" type="float" value="3"/>
   </properties>
  </object>
  <object id="258" x="2784" y="192" width="16" height="16">
   <properties>
    <property name="lifetime" type="float" value="3"/>
   </properties>
  </object>
  <object id="259" x="2560" y="448" width="16" height="16">
   <properties>
    <property name="lifetime" type="float" value="3"/>
   </properties>
  </object>
  <object id="211" x="160" y="32" width="16" height="16">
   <properties>
    <property name="lifetime" type="float" value="3"/>
   </properties>
  </object>
  <object id="212" x="128" y="64" width="16" height="16">
   <properties>
    <property name="lifetime" type="float" value="3"/>
   </properties>
  </object>
  <object id="282" x="3584" y="416" width="16" height="16">
   <properties>
    <property name="lifetime" type="float" value="3"/>
   </properties>
  </object>
  <object id="286" x="4192" y="304" width="16" height="16">
   <properties>
    <property name="lifetime" type="float" value="3"/>
   </properties>
  </object>
  <object id="287" x="4160" y="304" width="16" height="16">
   <properties>
    <property name="lifetime" type="float" value="3"/>
   </properties>
  </object>
  <object id="290" x="4576" y="208" width="16" height="16">
   <properties>
    <property name="lifetime" type="float" value="3"/>
   </properties>
  </object>
  <object id="291" x="4608" y="208" width="16" height="16">
   <properties>
    <property name="lifetime" type="float" value="3"/>
   </properties>
  </object>
  <object id="292" x="4640" y="416" width="16" height="16">
   <properties>
    <property name="lifetime" type="float" value="3"/>
   </properties>
  </object>
  <object id="293" x="4672" y="416" width="16" height="16">
   <properties>
    <property name="lifetime" type="float" value="3"/>
   </properties>
  </object>
  <object id="294" x="4672" y="384" width="16" height="16">
   <properties>
    <property name="lifetime" type="float" value="3"/>
   </properties>
  </object>
 </objectgroup>
 <objectgroup id="24" name="GhostBlocks">
  <object id="219" x="976" y="432" width="16" height="16"/>
  <object id="226" x="1680" y="688" width="16" height="16"/>
  <object id="234" x="1952" y="416" width="16" height="16"/>
  <object id="268" x="3024" y="288" width="16" height="16"/>
  <object id="269" x="3072" y="128" width="16" height="16"/>
  <object id="273" x="3744" y="336" width="16" height="16"/>
  <object id="235" x="1952" y="272" width="16" height="16"/>
  <object id="232" x="1680" y="688" width="16" height="16"/>
  <object id="233" x="1952" y="416" width="16" height="16"/>
 </objectgroup>
 <layer id="2" name="Tile Layer 1" width="300" height="50">
  <data encoding="csv">
0,0,0,0,0,0,0,0,0,0,0,0,0,0,0,0,0,0,0,0,0,0,0,0,0,0,0,0,0,0,0,0,0,0,0,0,0,0,0,0,0,0,0,0,0,0,0,0,0,0,0,0,0,0,0,0,0,0,0,0,0,0,0,0,0,0,0,0,0,0,0,0,0,0,0,0,0,0,337,338,339,340,341,342,343,344,345,346,347,348,0,0,0,0,0,0,0,0,0,0,0,0,0,0,0,0,0,0,0,0,0,0,0,0,0,0,0,0,0,0,0,0,0,0,0,0,0,0,0,0,0,0,0,0,0,0,0,0,0,0,0,0,0,0,0,0,0,0,0,0,0,0,0,0,0,0,148,149,148,148,148,148,196,196,196,196,196,196,244,244,244,244,244,244,244,148,149,150,151,152,153,157,158,159,160,965,965,965,965,965,965,965,965,965,965,965,965,965,965,965,965,966,967,965,965,965,965,965,965,965,965,965,965,965,965,965,965,781,782,783,784,965,965,965,965,965,965,965,965,965,965,965,965,965,965,1177,1178,1179,1180,1181,1182,1183,1184,965,965,965,965,965,965,965,965,966,967,968,969,969,969,969,969,969,769,770,771,772,773,774,775,776,777,778,779,780,969,969,969,969,969,781,782,783,784,969,966,967,918,919,781,782,783,784,969,969,969,969,969,969,969,969,969,969,
0,0,0,0,0,0,0,0,0,0,0,0,0,0,0,0,0,0,0,0,0,0,0,0,0,0,0,0,0,0,0,0,0,0,0,0,0,0,0,0,0,0,0,0,0,0,0,0,0,0,0,0,0,0,0,0,0,0,0,0,0,0,0,0,0,0,0,0,0,0,0,0,0,0,0,0,0,0,145,146,147,148,149,150,151,152,153,154,155,156,0,0,0,0,0,0,0,0,0,0,0,0,0,0,0,0,0,0,0,0,0,0,0,0,0,0,0,0,0,0,0,0,0,0,0,0,0,0,0,0,0,0,0,0,0,0,0,0,0,0,0,0,0,0,0,0,0,0,0,0,0,0,0,0,0,0,148,149,196,196,196,196,244,244,244,244,244,244,292,292,292,292,292,292,148,149,150,151,152,153,153,205,206,207,208,965,1013,1013,1013,1013,785,786,787,788,789,790,791,792,1013,1013,965,966,967,1013,1013,1013,1013,1013,1013,1013,1013,1013,1013,1013,1013,1013,1013,829,830,831,832,1013,1013,1013,1013,1013,1013,1013,1013,1013,1013,1013,1013,1013,1013,1225,1226,1227,1228,1229,1230,1231,1232,1013,1013,1013,1013,1013,1013,1013,965,966,967,968,969,1017,1017,1017,1017,1017,817,818,819,820,821,822,823,824,825,826,827,828,1017,1017,1017,1017,1017,829,830,831,832,1017,966,967,918,919,829,830,831,832,1017,1017,1017,1017,1017,1017,1017,1017,1017,1017,
0,0,0,0,0,0,0,0,0,0,0,0,0,0,0,0,0,0,0,0,0,0,0,0,0,0,0,0,0,0,0,0,0,0,0,0,0,0,0,0,0,0,0,0,0,0,0,0,0,0,0,0,0,0,0,0,0,0,0,0,0,0,0,0,0,0,0,0,0,0,0,0,0,0,0,0,0,0,193,194,195,196,197,198,199,200,201,202,203,204,0,0,0,0,0,0,0,0,0,0,0,0,0,0,0,0,0,0,0,0,0,0,0,0,0,0,0,0,0,0,0,0,0,0,0,0,0,0,0,0,0,0,0,0,0,0,0,0,0,0,0,0,0,0,0,0,0,0,0,0,0,0,0,0,0,0,148,149,244,244,244,244,292,292,292,292,292,292,340,340,340,340,340,340,148,149,150,151,152,153,201,253,254,255,256,965,1061,1061,1061,1061,833,834,835,836,837,838,839,840,1061,1061,965,966,967,1061,1061,1061,1061,1061,1061,965,965,965,965,965,965,965,966,877,878,879,880,1061,1061,1061,1061,1061,1061,1061,1061,1061,1061,1061,1061,1061,1061,1273,1274,1275,1276,1277,1278,1279,1280,1061,785,786,787,788,789,790,791,792,967,968,969,1065,1065,1065,1065,1065,865,866,867,868,869,870,871,872,873,874,875,876,1065,1065,1065,1065,1065,877,878,879,880,1065,966,967,918,919,877,878,879,880,1065,1065,1065,1065,1065,1065,1065,1065,1065,1065,
0,0,0,0,0,0,0,0,0,0,0,0,0,0,0,0,0,0,0,0,0,0,0,0,0,0,0,0,0,0,0,0,0,0,0,0,0,0,0,0,0,0,0,0,0,0,0,0,0,0,0,0,0,0,0,0,0,0,0,0,0,0,0,0,0,0,0,0,0,0,0,0,0,0,0,0,0,0,241,242,243,244,245,246,247,248,249,250,251,252,0,0,0,0,0,0,0,0,0,0,0,0,0,0,0,0,0,0,0,0,0,0,0,0,0,0,0,0,0,0,0,0,0,0,0,0,0,0,0,0,0,0,0,0,0,0,0,0,0,0,0,0,0,0,0,0,0,0,0,0,0,0,0,0,0,0,148,149,292,292,292,292,340,340,340,340,340,340,388,388,388,388,388,148,149,150,151,152,153,153,249,301,302,303,304,965,1109,965,966,967,881,882,883,884,885,886,887,888,967,965,965,965,965,965,965,965,965,965,965,966,967,968,969,1013,1013,1013,1014,925,926,927,928,1109,1109,1109,1109,1109,1109,1109,1109,1109,1109,1109,1109,1109,1109,1321,1322,1323,1324,1325,1326,1327,1328,1109,833,834,835,836,837,838,839,840,967,968,969,1113,1113,1113,1113,1113,913,914,915,916,917,918,919,920,921,922,923,924,1113,1113,1113,1113,1113,925,926,927,928,1113,966,967,918,919,925,926,927,928,1113,1113,1113,1113,1113,1113,1113,1113,1113,1113,
0,0,0,0,0,0,0,0,0,0,0,0,0,0,0,0,0,0,0,0,0,0,0,0,0,0,0,0,0,0,0,0,0,0,0,0,0,0,0,0,0,0,0,0,0,0,0,0,0,0,0,0,0,0,0,0,0,0,0,0,0,0,0,0,0,0,0,0,0,0,0,0,0,0,0,0,0,0,289,290,291,292,293,294,295,296,297,298,299,300,0,0,0,0,0,0,0,0,0,0,0,0,0,0,0,0,0,0,0,0,0,0,0,0,0,0,0,0,0,0,0,0,0,0,0,0,0,0,0,0,0,0,0,0,0,0,0,0,0,0,0,0,0,0,0,0,0,0,0,0,0,0,0,0,0,0,148,149,340,340,340,340,388,388,388,388,388,388,389,390,391,392,148,149,150,151,152,153,153,201,297,349,350,351,352,965,966,1013,965,966,929,930,931,932,933,934,935,936,967,1013,1013,1013,1013,1013,1013,1013,1013,1013,965,966,967,968,969,966,967,968,965,973,974,975,976,965,965,965,965,965,965,965,965,965,965,965,965,965,965,1369,1370,1371,1372,1373,1374,1375,1376,965,881,882,883,884,885,886,887,888,965,965,965,965,965,965,965,965,961,962,963,964,965,966,967,968,969,970,971,972,965,965,965,965,965,973,974,975,976,965,966,967,918,919,973,974,975,976,965,965,965,965,965,965,965,965,965,965,
0,0,0,0,0,0,0,0,0,0,0,0,0,0,0,0,0,0,0,0,0,0,0,0,0,0,0,0,0,0,0,0,0,0,0,0,0,0,0,0,0,0,0,0,0,0,0,0,0,0,0,0,0,0,0,0,0,0,0,0,0,0,0,0,0,0,0,0,0,0,0,0,0,0,0,0,0,0,337,338,339,340,341,342,343,344,345,346,347,348,0,0,0,0,0,0,0,0,0,0,0,0,0,0,0,0,0,0,0,0,0,0,0,0,0,0,0,0,0,0,0,0,0,0,0,0,0,0,0,0,0,0,0,0,0,0,0,0,0,0,0,0,0,0,0,0,0,0,0,0,0,0,0,0,0,0,148,149,388,388,148,149,150,151,152,153,153,153,153,153,153,153,153,153,153,153,153,201,201,249,345,397,398,399,400,965,966,1061,965,966,977,978,979,980,981,982,983,984,967,1061,1061,1061,1061,1061,965,966,967,968,969,966,967,968,969,965,966,967,1013,1021,1022,1023,1024,1013,1013,1013,1013,806,807,808,809,810,811,1013,1013,1013,1013,1417,1418,1419,1420,1421,1422,1423,1424,1013,929,930,931,932,933,934,935,936,1013,1013,1013,1013,1013,1013,1013,1013,1009,1010,1011,1012,1013,1014,1015,1016,1017,1018,1019,1020,1013,1013,1013,1013,1013,1021,1022,1023,1024,1013,966,967,918,919,1021,1022,1023,1024,1013,1013,1013,1013,1013,769,770,771,772,773,
0,0,0,0,0,0,0,0,0,0,0,0,0,0,0,0,0,0,0,0,0,0,0,0,0,0,0,0,0,0,0,0,0,0,0,0,0,0,0,0,0,0,0,0,0,0,0,0,0,0,0,0,0,0,0,0,0,0,0,0,0,0,0,0,0,0,0,0,0,0,0,0,0,0,0,0,0,0,145,146,147,148,149,150,151,152,153,154,155,156,0,0,0,0,0,0,0,0,0,0,0,0,0,0,0,0,0,0,0,0,0,0,0,0,0,0,0,0,0,0,0,0,0,0,0,0,0,0,0,0,0,0,0,0,0,0,0,0,0,0,0,0,0,0,0,0,0,0,0,0,0,0,0,0,0,0,148,149,150,151,196,197,198,199,200,201,201,201,201,201,201,201,201,201,201,201,201,249,249,297,393,157,158,159,160,1013,1014,1109,965,966,1025,1026,1027,1028,1029,1030,1031,1032,967,1109,1109,1109,1109,1109,965,966,967,968,969,966,967,968,969,965,966,967,1061,1069,1070,1071,1072,1061,1061,1061,1061,854,855,856,857,858,859,1061,1061,1061,1061,1465,1466,1467,1468,1469,1470,1471,1472,1061,977,978,979,980,981,982,983,984,1061,1061,1061,1061,1061,1061,1061,1061,1057,1058,1059,1060,1061,1062,1063,1064,1065,1066,1067,1068,1061,1061,1061,1061,1061,1069,1070,1071,1072,1061,966,967,918,919,1069,1070,1071,1072,1061,1061,1061,1061,1061,817,818,819,820,821,
0,0,0,0,1,2,3,4,5,6,7,8,9,10,11,12,0,0,0,0,0,0,0,0,0,0,0,0,0,0,0,0,0,0,0,0,0,0,0,0,0,0,0,0,0,0,0,0,0,0,0,0,0,0,0,0,0,0,0,0,0,0,0,0,0,0,0,0,0,0,0,0,0,0,0,0,0,0,193,194,195,196,197,198,199,200,201,202,203,204,0,0,0,0,0,0,0,0,0,0,0,0,0,0,0,0,1,2,3,4,5,6,7,8,9,10,11,12,0,0,0,0,0,0,0,0,0,0,0,0,0,0,0,0,0,0,0,0,0,0,0,0,0,0,0,0,0,0,0,0,0,0,0,0,0,0,196,148,149,150,244,245,246,247,248,249,249,249,249,249,249,249,249,249,249,249,249,297,297,345,341,205,206,207,208,1061,1062,1063,965,966,1073,1074,1075,1076,1077,1078,1079,1080,967,968,969,966,967,968,965,966,967,968,969,966,967,968,969,965,966,967,1109,1117,1118,1119,1120,1109,1109,1109,1109,902,903,904,905,906,907,1109,1109,1109,1109,1513,1514,1515,1516,1517,1518,1519,1520,1109,1025,1026,1027,1028,1029,1030,1031,1032,1109,1109,1109,1109,1109,1109,1109,1109,1105,1106,1107,1108,1109,1110,1111,1112,1113,1114,1115,1116,1109,1109,1109,1109,1109,1117,1118,1119,1120,1109,966,967,918,919,1117,1118,1119,1120,1109,1109,1109,1109,1109,865,866,867,868,869,
0,0,0,0,49,50,51,52,53,54,55,56,57,58,59,60,0,0,0,0,0,0,0,13,14,15,16,0,0,0,0,0,0,13,14,15,16,0,0,0,0,0,0,0,0,0,0,0,0,0,0,0,0,0,0,0,0,0,0,0,0,0,0,0,0,0,0,0,0,0,0,0,0,0,0,0,0,0,241,242,243,244,245,246,247,248,249,250,251,252,0,0,0,0,0,0,0,0,0,0,0,0,0,0,0,0,49,50,51,52,53,54,55,56,57,58,59,60,0,0,0,0,0,0,0,0,0,0,0,0,0,0,0,0,0,0,0,0,0,0,0,0,0,0,0,0,0,0,0,0,0,0,0,0,0,0,244,148,149,150,292,293,294,295,296,297,297,297,297,297,297,297,297,297,297,297,297,345,345,393,389,253,254,255,256,1109,1110,1111,965,966,1121,1122,1123,1124,1125,1126,1127,1128,967,968,969,966,967,968,965,966,967,968,969,966,967,968,969,965,966,967,968,1165,1166,1167,1168,965,965,966,967,950,951,952,953,954,955,969,969,969,969,1177,1178,1179,1180,1181,1182,1183,1184,969,1073,1074,1075,1076,1077,1078,1079,1080,969,969,969,969,969,969,969,969,961,962,963,964,965,966,967,968,969,970,971,972,969,969,969,969,969,1165,1166,1167,1168,969,966,967,918,919,1165,1166,1167,1168,969,969,969,969,969,913,914,915,916,917,
0,0,0,0,97,98,99,100,101,102,103,104,105,106,107,108,0,0,0,0,0,0,0,61,62,63,64,0,0,0,0,0,0,61,62,63,64,0,0,0,0,0,0,0,0,0,0,0,0,0,0,0,0,0,0,0,0,0,0,0,0,0,0,0,0,0,0,0,0,0,0,0,0,0,0,0,0,0,289,290,291,292,293,294,295,296,297,298,299,300,0,0,0,0,0,0,0,0,0,0,0,0,0,0,0,0,97,98,99,100,101,102,103,104,105,106,107,108,0,0,0,0,0,0,0,0,0,0,0,0,0,0,0,0,0,0,0,0,0,0,0,0,0,0,0,0,0,0,0,0,0,0,0,0,0,0,292,148,149,150,340,341,342,343,344,345,345,345,345,345,345,345,345,345,345,345,345,393,393,148,149,301,302,303,304,965,966,967,965,966,967,968,969,967,968,969,965,966,967,968,969,966,967,968,965,966,967,968,969,966,967,968,969,965,1357,1358,1359,925,926,927,928,1013,1013,1014,1015,998,999,1000,1001,1002,1003,1017,1017,1017,1017,1225,1226,1227,1228,1229,1230,1231,1232,1017,1121,1122,1123,1124,1125,1126,1127,1128,1017,1017,1017,1017,1017,1017,1017,1017,1009,1010,1011,1012,1013,1014,1015,1016,1017,1018,1019,1020,1017,1017,1017,1017,1017,1021,1022,1023,1024,1017,966,967,918,919,1213,1214,1215,1216,1017,1017,1017,1017,1017,961,962,963,964,965,
0,0,0,0,145,146,147,148,149,150,151,152,153,154,155,156,0,0,0,0,0,0,0,109,110,111,112,0,0,0,0,0,0,109,110,111,112,0,0,0,0,1,2,3,4,5,6,7,8,9,10,11,12,0,0,0,0,0,0,0,0,0,0,0,0,0,0,0,0,0,0,0,0,0,0,0,0,0,337,338,339,340,341,342,343,344,345,346,347,348,0,0,0,0,0,0,0,0,0,0,0,0,0,0,0,0,145,146,147,148,149,150,151,152,153,154,155,156,0,0,0,0,0,0,0,0,0,0,0,0,0,0,0,0,0,0,0,0,0,0,0,0,0,0,0,0,0,0,0,0,0,0,0,0,0,0,340,196,197,198,388,389,390,391,392,393,393,393,393,393,393,393,393,393,393,393,393,153,153,196,197,349,350,351,352,965,966,967,965,966,967,968,969,967,968,969,965,769,770,771,772,773,774,775,776,777,778,779,780,966,967,968,969,965,1405,1204,1205,1206,1207,975,976,1061,1061,1062,1063,1046,1047,1048,1049,1050,1051,1065,1065,1065,1065,1273,1274,1275,1276,1277,1278,1279,1280,1065,1065,1065,1065,1065,1065,1065,1065,1065,1065,1065,1065,1065,1065,1065,1065,1065,1057,1058,1059,1060,1061,1062,1063,1064,1065,1066,1067,1068,1065,1065,1065,1065,1065,1069,1070,1071,1072,1065,966,967,918,919,1309,1310,1311,1312,1065,1065,1065,1065,1065,1009,1010,1011,1012,1013,
0,0,0,0,193,194,195,196,197,198,199,200,201,202,203,204,0,0,0,0,0,0,0,157,158,159,160,0,0,0,0,0,0,157,158,159,160,0,0,0,0,49,50,51,52,53,54,55,56,57,58,59,60,0,0,0,0,0,0,0,0,0,0,0,0,0,0,0,0,0,0,0,0,0,0,0,0,0,145,146,147,148,149,150,151,152,153,154,155,156,0,0,0,0,0,0,0,0,0,0,0,0,0,0,0,0,193,194,195,196,197,198,199,200,201,202,203,204,0,0,0,0,0,0,0,0,0,0,0,0,0,0,0,0,0,0,0,0,0,0,0,0,0,0,0,0,0,0,0,0,0,0,0,0,0,0,388,244,245,246,247,248,249,249,249,249,249,249,249,249,17,18,19,20,21,22,23,24,201,244,245,397,398,399,400,965,966,967,965,966,967,968,969,967,968,969,965,817,818,819,820,821,822,823,824,825,826,827,828,966,967,968,969,965,1453,1252,1253,1254,1255,1023,1024,1109,1109,1110,1111,1094,1095,1096,1097,1098,1099,1113,1113,1113,1113,1321,1322,1323,1324,1325,1326,1327,1328,1113,1113,1113,1113,1113,1113,1113,1113,1113,1113,1113,1113,1113,1113,1113,1113,1113,1105,1106,1107,1108,1109,1110,1111,1112,1113,1114,1115,1116,1113,1113,1113,1113,1113,1117,1118,1119,1120,1113,966,967,918,919,918,919,1113,1113,1113,1113,1113,1113,1113,1057,1058,1059,1060,1061,
0,0,0,0,241,242,243,244,245,246,247,248,249,250,251,252,0,0,0,0,0,0,0,205,206,207,208,0,0,0,0,0,0,205,206,207,208,0,0,0,0,97,98,99,100,101,102,103,104,105,106,107,108,0,0,0,0,0,0,0,0,0,0,0,0,0,0,0,0,0,0,0,0,0,0,0,0,0,193,194,195,196,197,198,199,200,201,202,203,204,0,0,0,0,0,0,0,0,0,0,0,0,0,0,0,0,241,242,243,244,245,246,247,248,249,250,251,252,0,0,0,0,0,0,0,0,0,0,0,0,0,0,0,0,0,0,0,0,0,0,0,0,0,0,0,0,0,0,0,0,0,0,0,0,0,0,292,292,293,294,295,296,297,297,297,297,297,297,297,297,65,66,67,68,69,70,71,72,249,292,293,157,158,159,160,965,966,967,965,966,967,968,969,967,968,969,965,865,866,867,868,869,870,871,872,873,874,875,876,966,967,968,969,965,1501,1502,1503,1117,1070,1071,1072,965,965,965,965,965,965,965,965,965,965,965,965,965,965,1369,1370,1371,1372,1373,1374,1375,1376,965,965,965,965,965,965,965,965,965,965,965,965,965,965,965,965,965,1153,1154,1155,1156,1157,1158,1159,1160,1161,1162,1163,1164,965,965,965,965,965,1165,1166,1167,1168,965,966,967,918,919,918,919,965,965,965,965,965,965,965,1105,1106,1107,1108,1109,
0,0,0,0,289,290,291,292,293,294,295,296,297,298,299,300,0,0,0,0,0,0,0,253,254,255,256,0,0,0,0,0,0,253,254,255,256,0,0,0,0,145,146,147,148,149,150,151,152,153,154,155,156,0,0,0,0,0,0,0,0,0,0,0,0,0,0,0,0,0,0,0,0,0,0,0,0,0,241,242,243,244,245,246,247,248,249,250,251,252,0,0,0,0,0,0,0,0,0,0,0,0,0,0,0,0,289,290,291,292,293,294,295,296,297,298,299,300,0,0,0,0,0,0,0,0,0,0,0,0,0,0,0,0,0,0,0,0,0,0,0,0,0,0,0,0,0,0,0,0,0,0,0,0,0,0,340,340,341,342,343,344,345,345,345,345,345,345,345,345,113,114,115,116,117,118,119,120,297,340,341,205,206,207,208,965,966,967,965,966,967,968,969,967,968,969,965,913,914,915,916,917,918,919,920,921,922,923,924,966,967,968,969,965,966,967,968,1213,1118,1119,1120,1013,1013,1013,1013,1013,1013,1013,1013,1013,1013,1013,1013,1013,1013,1417,1418,1419,1420,1421,1422,1423,1424,1013,1013,1013,1013,1013,1013,1013,1013,1013,1013,1013,1013,1013,1013,1013,1013,1013,961,962,963,964,965,966,967,968,969,970,971,972,1013,1013,1013,1013,1013,1213,1214,1215,1216,1013,966,967,918,919,966,967,1013,1013,1013,1013,1013,1013,1013,1153,1154,1155,1156,1157,
0,0,0,0,337,338,339,340,341,342,343,344,345,346,347,348,0,0,0,0,0,0,0,301,302,303,304,0,0,0,0,0,0,301,302,303,304,0,0,0,0,193,194,195,196,197,198,199,200,201,202,203,204,0,0,0,0,0,0,0,0,0,0,0,0,0,0,0,0,0,0,0,0,0,0,0,0,0,289,290,291,292,293,294,295,296,297,298,299,300,0,0,0,0,0,0,0,0,0,0,0,0,0,0,0,0,337,338,339,340,341,342,343,344,345,346,347,348,0,0,0,0,0,0,0,0,0,0,0,0,0,0,0,0,0,0,0,0,0,0,0,0,0,0,0,0,0,0,0,0,0,0,0,0,0,0,388,388,389,390,391,392,393,393,393,393,393,393,393,393,161,162,163,164,165,166,167,168,345,388,389,253,254,255,256,965,966,967,965,966,967,968,969,967,968,969,965,961,962,963,964,965,966,967,968,969,970,971,972,966,967,968,969,965,966,967,968,1165,1166,1167,1168,1061,1061,1061,1061,1061,1061,1061,1061,1061,1061,1061,1061,1061,1061,1465,1466,1467,1468,1469,1470,1471,1472,1061,1061,1061,1061,1061,1061,1061,785,786,787,788,789,790,791,792,1061,1061,1201,1202,1203,1204,1205,1206,1207,1208,1209,1210,1211,1212,1061,1061,1061,1061,1061,1261,1262,1263,1264,1061,966,967,966,967,1014,1015,1061,1061,1061,1061,1061,1061,1061,1201,1202,1203,1204,1205,
0,0,0,0,385,386,387,388,389,390,391,392,393,394,395,396,0,0,0,0,0,0,0,349,350,351,352,0,0,0,0,0,0,349,350,351,352,0,0,0,0,241,242,243,244,245,246,247,248,249,250,251,252,0,0,0,0,0,0,0,0,0,0,0,0,0,0,0,0,0,0,0,0,0,0,0,0,0,337,338,339,340,341,342,343,344,345,346,347,348,0,0,0,0,0,0,0,0,0,0,0,0,0,0,0,0,385,386,387,388,389,390,391,392,393,394,395,396,0,0,0,0,0,0,0,0,0,0,0,0,0,0,0,0,0,0,0,0,0,0,0,0,0,0,0,0,0,0,0,0,0,0,0,0,0,0,148,149,150,151,152,153,148,149,150,388,389,390,391,392,209,210,211,212,213,214,215,216,393,148,149,301,302,303,304,965,966,967,965,966,967,968,969,967,968,969,965,1009,1010,1011,1012,1013,1014,1015,1016,1017,1018,1019,1020,966,967,968,969,965,965,965,966,1213,1214,1215,1216,1109,1109,1109,1109,1109,1109,1109,1109,1109,1109,1109,1109,1109,1109,1513,1514,1515,1516,1517,1518,1519,1520,1109,1109,1109,1109,1109,1109,1109,833,834,835,836,837,838,839,840,1109,1109,1249,1250,1251,1252,1253,1254,1255,1256,1257,1258,1259,1260,1109,1109,1109,1109,1109,1309,1310,1311,1312,1109,1014,1015,1014,1015,1357,1358,1359,1360,1109,1109,1109,1109,1109,1249,1250,1251,1252,1253,
0,0,0,0,433,434,435,436,437,438,439,440,441,442,443,444,0,0,0,0,0,0,0,397,398,399,400,0,0,0,0,0,0,397,398,399,400,0,0,0,0,289,290,291,292,293,294,295,296,297,298,299,300,0,0,0,0,0,0,0,0,0,0,0,0,0,0,0,0,0,0,0,0,0,0,0,0,0,145,146,147,148,149,150,151,152,153,154,155,156,0,0,0,0,0,0,0,0,0,0,0,0,0,0,0,0,433,434,435,436,437,438,439,440,441,442,443,444,0,0,0,0,0,0,0,0,0,0,0,0,0,0,0,0,0,0,0,0,0,0,0,0,0,0,0,0,0,0,0,0,0,0,0,0,0,0,196,197,198,199,200,201,196,197,198,199,200,201,196,197,257,258,259,260,261,262,263,264,200,196,197,349,350,351,352,965,966,967,965,966,967,968,969,967,968,969,965,1057,1058,1059,1060,1061,1062,1063,1064,1065,1066,1067,1068,966,967,968,969,965,1013,965,965,1213,1214,1215,1216,965,965,965,965,965,965,965,965,965,965,965,965,965,965,1177,1178,1179,1180,1181,1182,1183,1184,965,965,965,965,965,965,965,881,882,883,884,885,886,887,888,965,965,1297,1298,1299,1300,1301,1302,1303,1304,1305,1306,1307,1308,965,965,965,965,965,965,965,965,965,965,1062,1063,965,965,1405,1406,1407,1408,965,965,965,965,965,1297,1298,1299,1300,1301,
0,0,0,0,481,482,483,484,485,486,487,488,489,490,491,492,0,0,0,0,0,0,0,445,446,447,448,0,0,0,0,0,0,445,446,447,448,0,0,0,0,337,338,339,340,341,342,343,344,345,346,347,348,0,0,0,0,0,0,0,0,0,0,0,0,0,0,0,0,0,0,0,0,0,0,0,0,0,193,194,195,196,197,198,199,200,201,202,203,204,0,0,0,0,0,0,0,0,0,0,0,0,0,0,0,0,481,482,483,484,485,486,487,488,489,490,491,492,0,0,0,0,0,0,0,0,0,0,0,0,0,0,0,0,0,0,0,0,0,0,0,0,0,0,0,0,0,0,0,0,0,0,0,0,0,0,244,245,246,247,248,249,244,245,246,247,248,249,244,245,305,306,307,308,309,310,311,312,248,244,245,157,158,159,160,965,966,967,965,966,967,968,969,967,968,969,965,1105,1106,1107,1108,1109,1110,1111,1112,1113,1114,1115,1116,966,967,968,969,965,1061,1013,1013,1261,1262,1263,1264,1013,1013,1013,1013,1013,1013,1013,1013,1013,1013,1013,1013,1013,1013,1225,1226,1227,1228,1229,1230,1231,1232,1013,1013,1013,1013,1013,1013,1013,929,930,931,932,933,934,935,936,1013,1013,965,966,967,968,1357,1358,1359,1360,965,966,967,968,1013,1013,1013,1013,1013,1013,1013,1013,1013,1013,1013,1013,1013,1013,1453,1454,1455,1456,1013,1013,1013,1013,1013,1013,1013,1013,1013,1013,
0,0,0,0,529,530,531,532,533,534,535,536,537,538,539,540,0,0,0,0,0,0,0,493,494,495,496,0,0,0,0,0,0,493,494,495,496,0,0,0,0,385,386,387,388,389,390,391,392,393,394,395,396,0,0,0,0,0,0,0,0,0,0,0,0,0,0,0,0,0,0,0,0,0,0,0,0,0,241,242,243,244,245,246,247,248,249,250,251,252,0,0,0,0,0,0,0,0,0,0,0,0,0,0,0,0,529,530,531,532,533,534,535,536,537,538,539,540,0,0,0,0,0,0,0,0,0,0,0,0,0,0,0,0,0,0,0,0,0,0,0,0,0,0,0,0,0,0,0,0,0,0,0,0,0,0,292,293,294,295,296,297,17,18,19,20,21,22,23,24,353,354,355,356,357,358,359,360,296,292,293,205,206,207,208,965,966,967,965,966,967,968,969,967,968,969,965,1153,1154,1155,1156,1157,1158,1159,1160,1161,1162,1163,1164,966,967,968,969,965,1109,1061,1061,1309,1310,1311,1312,1061,1061,1061,1061,1061,1061,1061,1061,1061,1061,1061,1061,1061,1061,1273,1274,1275,1276,1277,1278,1279,1280,1061,1061,1061,1061,1061,1061,1061,977,978,979,980,981,982,983,984,1061,1061,1013,1014,1015,1016,1405,1406,1407,1408,1013,1014,1015,1016,1061,1061,1061,1061,1061,1061,1061,1061,1061,1061,1061,1061,1061,1061,1501,1502,1503,1504,789,790,791,792,1061,1061,1061,1061,1061,1061,
0,0,0,0,0,0,0,0,0,0,0,0,0,0,0,0,0,0,0,0,0,0,0,541,542,543,544,0,0,0,0,0,0,541,542,543,544,0,0,0,0,433,434,435,436,437,438,439,440,441,442,443,444,0,0,0,0,0,0,0,0,0,0,0,0,0,0,0,0,0,0,0,0,0,0,0,0,0,289,290,291,292,293,294,295,296,297,298,299,300,0,0,0,0,0,0,0,0,0,0,0,0,0,0,0,0,0,0,0,0,0,0,0,0,0,0,0,0,0,0,0,0,0,0,0,0,0,0,0,0,0,0,0,0,0,0,0,0,0,0,0,0,0,0,0,0,0,0,0,0,0,0,0,0,0,0,340,341,342,343,344,345,65,66,67,68,69,70,71,72,342,343,344,345,340,341,342,343,344,340,341,253,254,255,256,965,966,967,965,966,967,968,969,967,968,969,965,1201,1202,1203,1204,1205,1206,1207,1208,1209,1210,1211,1212,966,785,786,787,788,789,790,791,792,1109,1109,965,965,965,965,965,965,965,965,965,965,965,965,965,965,965,1321,1322,1323,1324,1325,1326,1327,1328,965,965,965,965,965,965,965,1025,1026,1027,1028,1029,1030,1031,1032,965,965,1061,1062,1063,1064,1453,1454,1455,1456,1061,1062,1063,1064,965,965,965,965,965,965,965,965,965,965,965,965,965,965,833,834,835,836,837,838,839,840,965,965,965,965,965,965,
0,0,0,0,0,0,0,0,0,0,0,0,0,0,0,0,0,0,0,0,0,0,0,0,0,0,0,0,0,0,0,0,0,0,0,0,0,0,0,0,0,481,482,483,484,485,486,487,488,489,490,491,492,0,0,0,0,0,0,0,0,0,0,0,0,0,0,0,0,0,0,0,0,0,0,0,0,0,337,338,339,340,341,342,343,344,345,346,347,348,0,0,0,0,0,0,0,0,0,0,0,0,0,0,0,0,0,0,0,0,0,0,0,0,0,0,0,0,0,0,0,0,0,0,0,0,0,0,0,0,0,0,0,0,0,0,0,0,0,0,0,0,0,0,0,0,0,0,0,0,0,0,0,0,0,0,388,389,390,391,392,393,113,114,115,116,117,118,119,120,390,391,392,393,388,389,390,391,392,388,389,301,302,303,304,965,966,967,965,966,967,968,969,967,968,969,965,1249,1250,1251,1252,1253,1254,1255,1256,1257,1258,1259,1260,966,833,834,835,836,837,838,839,840,965,966,1013,1013,1013,1013,1013,1013,1013,1013,1013,1013,1013,1013,1013,1013,1013,1369,1370,1371,1372,1373,1374,1375,1376,1013,1013,1013,1013,1013,1013,1013,1073,1074,1075,1076,1077,1078,1079,1080,1013,1013,1109,1110,1111,1112,1501,1502,1503,1504,1109,1110,1111,1112,1013,1013,1013,1013,1013,1013,1013,1013,1013,1013,1013,1013,1013,1013,881,882,883,884,885,886,887,888,1013,1013,1013,1013,1013,1013,
0,0,0,0,0,0,0,0,0,0,0,0,0,0,0,0,0,0,0,0,0,0,0,0,0,0,0,0,0,0,0,0,0,0,0,0,0,0,0,0,0,529,530,531,532,533,534,535,536,537,538,539,540,0,0,0,0,0,0,0,0,0,0,0,0,0,0,0,0,0,0,0,0,0,0,0,0,0,145,146,147,148,149,150,151,152,153,154,155,156,0,0,0,0,0,0,0,0,0,0,0,0,0,0,0,0,0,0,0,0,0,0,0,0,0,0,0,0,0,0,0,0,0,0,0,0,0,0,0,0,0,0,0,0,0,0,0,0,0,0,0,0,0,0,0,0,0,0,0,0,0,0,0,0,0,0,148,149,150,151,152,153,161,162,163,164,165,166,167,168,151,152,153,148,149,150,151,152,153,148,149,349,350,351,352,965,966,967,965,966,967,968,969,967,968,969,965,1297,1298,1299,1300,1301,1302,1303,1304,1305,1306,1307,1308,965,881,882,883,884,885,886,887,888,965,965,1061,1061,1061,1061,1061,1061,1061,1061,1061,1061,1061,1061,1061,1061,1061,1417,1418,1419,1420,1421,1422,1423,1424,1061,1061,1061,1061,1061,1061,1061,1121,1122,1123,1124,1125,1126,1127,1128,1061,1061,769,770,771,772,773,774,775,776,777,778,779,780,1061,1061,1061,1061,1061,1061,1061,1061,1061,1061,1061,1061,1061,1061,929,930,931,932,933,934,935,936,1061,1061,1061,1061,1061,1061,
0,0,0,0,0,0,0,0,0,0,0,0,0,0,0,0,0,0,0,0,0,0,0,0,0,0,0,0,0,0,0,0,0,0,0,0,0,0,0,0,0,0,0,0,0,0,0,0,0,0,0,0,0,0,0,0,0,0,0,0,0,0,0,0,0,0,0,0,0,0,0,0,0,0,0,0,0,0,193,194,195,196,197,198,199,200,201,202,203,204,0,0,0,0,0,0,0,0,0,0,0,0,0,0,0,0,0,0,0,0,0,0,0,0,0,0,0,0,0,0,0,0,0,0,0,0,0,0,0,0,0,0,0,0,0,0,0,0,0,0,0,0,0,0,0,0,0,0,0,0,0,0,0,0,0,0,196,197,198,199,200,201,209,210,211,212,213,214,215,216,199,200,201,196,197,198,199,200,201,196,197,397,398,399,400,965,966,967,965,966,967,968,969,967,968,969,965,966,967,968,965,966,967,968,965,966,967,968,1013,1013,929,930,931,932,933,934,935,936,1013,1013,1109,1109,1109,1109,1109,1109,1109,1109,1109,1109,1109,1109,1109,1109,1109,1465,1466,1467,1468,1469,1470,1471,1472,1109,1109,1109,1109,1109,1109,1109,1109,1109,1109,1109,1109,1109,1109,1109,1109,1109,817,818,819,820,821,822,823,824,825,826,827,828,1109,1109,1109,1109,1109,1109,1109,1109,1109,1109,1109,1109,1109,1109,977,978,979,980,981,982,983,984,1109,1109,1109,1109,1109,1109,
0,0,0,0,0,0,0,0,0,0,0,0,0,0,0,0,0,0,0,0,0,0,0,0,0,0,0,0,0,0,0,0,0,0,0,0,0,0,0,0,0,0,0,0,0,0,0,0,0,0,0,0,0,0,0,0,0,0,0,0,0,0,0,0,0,0,0,0,0,0,0,0,0,0,0,0,0,0,241,242,243,244,245,246,247,248,249,250,251,252,0,0,0,0,0,0,0,0,0,0,0,0,0,0,0,0,0,0,0,0,0,0,0,0,0,0,0,0,0,0,0,0,0,0,0,0,0,0,0,0,0,0,0,0,0,0,0,0,0,0,0,0,0,0,0,0,0,0,0,0,0,0,0,0,0,0,244,245,246,247,248,249,257,258,259,260,261,262,263,264,247,248,249,244,245,246,247,248,249,244,245,246,247,248,249,965,966,967,965,966,967,968,969,967,968,965,966,967,968,969,965,966,967,968,965,966,967,968,1061,1061,977,978,979,980,981,982,983,984,1061,1061,1061,1061,965,965,965,965,965,965,965,965,965,965,965,965,965,1513,1514,1515,1516,1517,1518,1519,1520,965,965,965,965,965,965,965,965,965,965,965,965,965,965,965,965,965,961,962,963,964,965,966,967,968,969,970,971,972,965,965,965,965,965,965,965,781,782,783,784,965,965,965,1025,1026,1027,1028,1029,1030,1031,1032,965,965,965,966,967,968,
0,0,0,0,0,0,0,0,0,0,0,0,0,0,0,0,0,0,0,0,0,0,0,0,0,0,0,0,0,0,0,0,0,0,0,0,0,0,0,0,0,0,0,0,0,0,0,0,0,0,0,0,0,0,0,0,0,589,590,591,592,0,0,0,0,0,0,0,0,0,0,0,0,0,0,0,0,0,289,290,291,292,293,294,295,296,297,298,299,300,0,0,0,0,0,0,0,0,0,0,0,0,0,0,0,0,0,0,0,0,0,0,0,0,0,0,0,0,0,0,0,0,0,0,0,0,0,0,0,0,0,0,0,0,0,0,0,0,0,0,0,0,0,0,0,0,0,0,0,0,0,0,0,0,0,0,292,293,294,295,296,297,305,306,307,308,309,310,311,312,295,296,297,292,293,294,295,296,297,292,293,294,295,296,297,965,966,967,965,966,967,968,969,967,968,965,966,967,968,969,965,966,967,968,965,966,967,968,1109,1109,1025,1026,1027,1028,1029,1030,1031,1032,1109,1109,1109,1109,1013,1013,1013,1013,1013,1013,1013,1013,1013,1013,1013,1013,1013,1177,1178,1179,1180,1181,1182,1183,1184,1013,1013,1013,1013,1013,1013,1013,1013,1013,1013,1013,1013,1013,1013,1013,1013,1013,1009,1010,1011,1012,1013,1014,1015,1016,1017,1018,1019,1020,1013,1013,1013,1013,1013,1013,1013,829,830,831,832,1013,1013,1013,1073,1074,1075,1076,1077,1078,1079,1080,1013,1013,1013,1014,1015,1016,
0,0,0,0,0,0,0,0,0,0,0,0,0,0,0,0,0,0,0,0,0,0,0,0,0,0,0,0,0,0,0,0,0,0,0,0,0,0,0,0,0,0,0,0,0,0,0,0,0,0,0,0,0,0,0,0,0,637,638,639,640,0,0,0,0,0,0,0,0,0,0,0,0,0,0,0,0,0,337,338,339,340,341,342,343,344,345,346,347,348,0,0,0,0,0,0,0,0,0,0,0,0,0,0,0,0,0,0,0,0,0,0,0,0,0,0,0,0,0,0,0,0,0,0,0,0,0,0,0,0,0,0,0,0,0,0,0,0,0,0,0,0,0,0,0,0,0,0,0,0,0,0,0,0,0,0,340,341,342,343,344,345,353,354,355,356,357,358,359,360,343,344,345,340,341,342,343,344,345,340,341,342,343,344,345,965,966,967,965,966,967,968,969,967,968,965,966,967,968,969,965,966,967,968,965,966,967,968,969,966,1073,1074,1075,1076,1077,1078,1079,1080,969,966,967,968,1061,1061,1061,1061,1061,1061,1061,1061,1061,1061,1061,1061,1061,1225,1226,1227,1228,1229,1230,1231,1232,1061,1061,1061,1061,1061,1061,1061,1061,1061,1061,1061,1061,1061,1061,1061,1061,1061,1057,1058,1059,1060,1061,1062,1063,1064,1065,1066,1067,1068,1061,1061,1061,1061,1061,1061,1061,877,878,879,880,1061,1061,1061,1121,1122,1123,1124,1125,1126,1127,1128,1061,1061,1061,1062,1063,1064,
0,0,0,0,0,0,0,0,0,0,0,0,0,0,0,0,0,0,0,0,0,0,0,0,0,0,0,0,0,0,0,0,0,0,0,0,0,0,0,0,0,0,0,0,0,0,0,0,0,0,0,0,0,0,0,0,0,685,686,687,688,0,0,0,0,0,0,0,0,0,0,0,0,0,0,0,0,0,193,194,195,196,197,198,199,200,201,202,203,204,0,0,0,0,0,0,0,0,0,0,0,0,0,0,0,0,0,0,0,0,0,0,0,0,0,0,0,0,0,0,0,0,0,0,0,0,0,0,0,0,0,0,0,0,0,0,0,0,0,0,0,0,0,0,0,0,0,0,0,0,0,0,0,0,0,0,388,389,390,391,392,393,389,390,391,392,393,388,389,390,391,392,393,388,389,390,391,392,393,388,389,390,391,392,393,965,966,967,1013,1014,1015,1016,1017,967,968,965,966,967,968,969,965,966,967,968,965,966,967,968,969,966,1121,1122,1123,1124,1125,1126,1127,1128,969,966,967,968,1109,1109,1109,1109,1109,1109,1109,1109,1109,1109,1109,1109,1109,1273,1274,1275,1276,1277,1278,1279,1280,1109,1109,1109,1109,1109,1109,1109,1109,1109,1109,1109,1109,1109,1109,1109,1109,1109,1105,1106,1107,1108,1109,1110,1111,1112,1113,1114,1115,1116,1109,1109,1109,1109,1109,1109,1109,925,926,927,928,1109,1109,1109,1109,1109,1109,1109,1109,1109,1109,1109,1109,1109,1109,1110,1111,1112,
0,0,0,0,0,0,0,0,0,0,0,0,0,0,0,0,0,0,0,0,0,0,0,0,0,0,0,0,0,0,0,0,0,0,0,0,0,0,0,0,0,0,0,0,0,0,0,0,0,0,0,0,0,0,0,0,0,733,734,735,736,0,0,0,0,0,0,0,0,0,0,0,0,0,0,0,0,0,241,242,243,244,245,246,247,248,249,250,251,252,0,0,0,0,0,0,0,0,0,0,0,0,0,0,0,0,0,0,0,0,0,0,0,0,0,0,0,0,0,0,0,0,0,0,0,0,0,0,0,0,0,0,0,0,0,0,0,0,0,0,0,0,0,0,0,0,0,0,0,0,0,0,0,0,0,0,17,18,19,20,21,22,23,24,148,149,150,151,152,153,148,149,150,151,152,153,149,150,151,19,20,21,22,23,24,965,966,967,1061,965,966,967,968,969,1016,965,966,967,968,969,965,966,967,968,965,966,967,968,969,1014,1015,1016,1017,965,966,967,968,969,969,966,967,965,965,965,965,965,965,965,965,965,965,965,965,965,965,1321,1322,1323,1324,1325,1326,1327,1328,965,965,965,965,965,965,965,965,965,965,965,965,965,965,965,965,965,1153,1154,1155,1156,1157,1158,1159,1160,1161,1162,1163,1164,965,965,965,965,965,965,965,973,974,975,976,965,965,965,965,965,965,965,965,965,965,965,965,965,965,965,965,965,
0,0,0,0,0,0,0,0,0,0,0,0,0,0,0,0,0,0,0,0,0,0,0,0,0,0,0,0,0,0,0,0,0,0,0,0,0,0,0,0,0,0,0,0,0,0,0,0,0,0,0,0,0,0,0,0,0,0,0,0,0,0,0,0,0,0,0,0,0,0,0,0,0,0,0,0,0,0,289,290,291,292,293,294,295,296,297,298,299,300,0,0,0,0,0,0,0,0,0,0,0,0,0,0,0,0,1,2,3,4,5,6,7,8,9,10,11,12,0,0,0,0,0,0,0,0,0,0,0,0,0,0,0,0,0,0,0,0,0,0,0,0,0,0,0,0,0,0,0,0,0,0,0,0,0,0,65,66,67,68,69,70,71,72,196,197,198,199,200,201,196,197,198,199,200,201,197,198,199,67,68,69,70,71,72,965,966,967,1109,965,966,967,968,969,1064,965,966,967,968,969,965,966,967,968,965,966,967,968,969,1062,1063,1064,1065,965,966,967,968,969,969,966,967,1013,1193,1194,1195,1196,1197,1198,1199,1200,1013,1013,1013,1013,1013,1369,1370,1371,1372,1373,1374,1375,1376,1013,1013,1013,1013,1013,1013,1013,1013,1013,1013,1013,1013,1013,1357,1358,1359,1360,1153,1154,1155,1156,1157,1158,1159,1160,1161,1162,1163,1164,1013,1013,1013,1013,1013,1013,1013,1021,1022,1023,1024,1013,1013,1013,1013,1013,769,770,771,772,773,774,775,776,777,778,779,780,
0,0,0,0,0,0,0,0,0,0,0,0,0,0,0,0,0,0,0,0,0,0,0,0,0,0,0,0,0,0,0,0,0,0,0,0,0,0,0,0,0,0,0,0,0,0,0,0,0,0,0,0,0,0,0,0,0,0,0,0,0,0,0,0,0,0,0,0,0,0,0,0,0,0,0,0,0,0,337,338,339,340,341,342,343,344,345,346,347,348,0,0,0,0,0,0,13,14,15,16,0,0,0,0,0,0,49,50,51,52,53,54,55,56,57,58,59,60,0,0,0,0,0,0,0,0,0,0,0,0,0,0,0,0,0,0,0,0,0,0,0,0,0,0,0,0,0,0,0,0,0,0,0,0,0,0,113,114,115,116,117,118,119,120,244,245,246,247,248,249,244,245,246,247,248,249,245,246,247,115,116,117,118,119,120,965,966,967,968,965,966,965,966,967,968,969,966,967,968,969,965,966,967,968,965,966,967,968,969,1110,1111,1112,1113,965,966,967,968,969,969,966,967,965,1241,1242,1243,1244,1245,1246,1247,1248,969,1061,1061,1061,1061,1417,1418,1419,1420,1421,1422,1423,1424,1061,1061,1061,1061,1061,1061,1061,1061,1061,1061,1061,1061,1061,1405,1202,1203,1204,1205,1206,1207,1204,1205,1206,1207,1208,1209,1210,1211,1212,1061,1061,1061,1061,1061,1061,1061,1069,1070,1071,1072,1061,1061,1061,1061,1061,817,818,819,820,821,822,823,824,825,826,827,828,
1,2,3,4,5,6,7,5,6,7,8,9,5,6,7,8,9,5,6,7,8,9,10,11,12,0,0,0,0,0,0,0,0,0,0,0,0,0,0,0,0,0,0,0,0,0,0,0,0,0,0,0,0,0,0,0,0,0,0,0,0,0,0,0,0,0,0,0,0,0,0,0,0,0,0,0,0,0,385,386,387,388,389,390,391,392,393,394,395,396,0,0,0,0,0,0,61,62,63,64,0,0,0,0,0,0,97,98,99,100,101,102,103,104,105,106,107,108,0,0,0,0,0,0,0,0,0,0,0,0,0,0,0,0,0,0,0,0,0,0,0,0,0,0,0,0,0,0,0,0,0,0,0,0,0,0,161,162,163,164,165,166,167,168,292,293,294,295,296,297,292,293,294,295,296,297,196,161,162,163,164,165,166,167,168,965,966,967,968,965,966,965,966,967,968,969,966,967,968,969,965,966,967,968,965,966,967,968,969,1110,1111,1112,1113,965,966,967,968,969,965,965,965,1013,1289,1290,1291,1292,1293,1294,1295,1296,965,966,967,968,969,1465,1466,1467,1468,1469,1470,1471,1472,1109,1109,1109,1109,1109,1109,1109,1109,1109,1109,1109,1109,1109,1453,1250,1251,1252,1253,1254,1255,1252,1253,1254,1255,1256,1257,1258,1259,1260,1109,1109,1109,1109,1109,1109,1109,1117,1118,1119,1120,1109,1109,1109,1109,1109,865,866,867,868,869,870,871,872,873,874,875,876,
49,50,51,52,53,54,55,53,54,55,56,57,53,54,55,56,57,53,54,55,56,57,58,59,60,0,0,0,0,0,0,0,0,0,0,0,0,0,0,0,0,0,0,0,0,0,0,0,0,0,0,0,0,0,0,0,0,0,0,0,0,0,0,0,0,0,0,0,0,0,0,0,0,0,0,0,0,0,433,434,435,436,437,438,439,440,441,442,443,444,0,0,0,0,0,0,109,110,111,112,0,0,0,0,0,0,145,146,147,148,149,150,151,152,153,154,155,156,0,0,0,0,0,0,0,0,0,0,0,0,0,0,0,0,0,0,0,0,0,0,0,0,0,0,0,0,0,0,0,0,0,0,0,0,0,0,209,210,211,212,213,214,215,216,340,341,342,343,344,345,340,341,342,343,344,345,244,209,210,211,212,213,214,215,216,965,966,967,769,770,771,772,773,774,775,776,777,778,779,780,969,966,967,968,1013,1014,1015,1016,1017,969,966,967,968,965,966,967,968,969,1013,1013,1013,1061,1337,1338,1339,1340,1341,1342,1343,1344,965,965,965,965,965,1513,1514,1515,1516,1517,1518,1519,1520,965,965,965,965,965,965,965,965,965,965,965,965,965,1501,1502,1503,1504,1297,1298,1299,1300,1301,1302,1303,1304,1305,1306,1307,1308,965,965,965,965,965,965,965,1165,1166,1167,1168,965,965,965,965,965,913,914,915,916,917,918,919,920,921,922,923,924,
97,98,99,100,101,102,103,101,102,103,104,105,101,102,103,104,105,101,102,103,104,105,106,107,108,0,0,0,0,0,0,0,0,0,0,0,0,0,0,0,0,0,0,0,0,0,0,0,0,0,0,0,0,0,0,0,0,0,0,0,0,0,0,0,0,0,0,0,0,0,0,0,0,0,0,0,0,0,1,2,3,4,5,6,7,8,9,10,11,12,0,0,0,0,0,0,157,158,159,160,0,0,0,0,0,0,193,194,195,196,197,198,199,200,201,202,203,204,0,0,0,0,0,0,0,0,0,0,0,0,0,0,0,0,0,0,0,0,0,0,0,0,0,0,0,0,0,0,0,0,0,0,0,0,0,0,257,258,259,260,261,262,263,264,388,389,390,391,392,393,388,389,390,391,392,393,292,257,258,259,260,261,262,263,264,965,966,967,817,818,819,820,821,822,823,824,825,826,827,828,969,966,967,968,1061,1062,1063,1064,1065,969,966,967,968,965,966,967,968,969,1061,1061,1061,965,1385,1386,1387,1388,1389,1390,1391,1392,1013,1013,1013,1013,1013,1013,1013,1013,1013,1013,1013,1013,1013,1013,1013,1013,1013,1013,1013,1013,1013,1013,1013,1013,1013,1013,1013,1013,1013,1013,1013,1013,1013,1013,1013,1013,1013,1013,1013,1013,1013,1013,1013,1013,1013,1013,1013,1013,1013,1213,1214,1215,1216,1013,1013,1013,1013,1013,961,962,963,964,965,966,967,968,969,970,971,972,
145,146,147,148,149,150,151,149,150,151,152,153,149,150,151,152,153,149,150,151,152,153,154,155,156,0,0,0,0,0,0,0,0,0,0,0,0,0,0,0,0,0,0,0,0,0,0,0,0,0,0,0,0,0,0,0,0,0,0,0,0,0,0,0,0,0,0,0,0,0,0,0,0,0,0,0,0,0,49,50,51,52,53,54,55,56,57,58,59,60,0,0,0,0,0,0,205,206,207,208,0,0,0,0,0,0,241,242,243,244,245,246,247,248,249,250,251,252,0,0,0,0,0,0,0,0,0,0,0,0,0,0,0,0,0,0,0,0,0,0,0,0,0,0,0,0,0,0,0,0,0,0,0,0,0,0,305,306,307,308,309,310,311,312,340,341,342,343,344,345,340,341,342,343,344,345,340,305,306,307,308,309,310,311,312,965,966,967,865,866,867,868,869,870,871,872,873,874,875,876,969,966,967,968,1109,1110,1111,769,770,771,772,773,774,775,776,777,778,779,780,1109,1109,1013,1433,1434,1435,1436,1437,1438,1439,1440,1061,1061,1061,1061,1061,1061,1061,1061,1061,1061,1061,1061,1061,1061,1061,1061,1061,1061,1061,1061,1061,1061,1061,1061,1061,1061,1061,1061,1061,1061,1061,1061,1061,1061,1061,1061,1061,1061,1061,1061,1061,1061,1061,1061,1061,1061,1061,1061,1061,1261,1262,1263,1264,1061,1061,1061,1061,1061,1009,1010,1011,1012,1013,1014,1015,1016,1017,1018,1019,1020,
193,194,195,196,197,198,196,197,198,199,200,201,196,197,198,199,200,201,198,199,200,201,202,203,204,1,2,3,4,5,6,7,8,9,10,11,12,0,0,0,0,1,2,3,4,5,6,7,8,9,10,11,12,0,0,0,0,0,0,0,0,0,0,0,0,0,0,0,0,0,0,0,0,0,0,0,0,0,97,98,99,100,101,102,103,104,105,106,107,108,0,0,0,0,0,0,253,254,255,256,0,0,0,0,0,0,289,290,291,292,293,294,295,296,297,298,299,300,0,0,0,0,0,0,0,0,0,0,0,0,0,0,0,0,0,0,0,0,0,0,0,0,0,0,0,0,0,0,0,0,0,0,0,0,0,0,353,354,355,356,357,358,359,360,388,389,390,391,392,393,388,389,390,391,392,393,388,353,354,355,356,357,358,359,360,965,966,967,913,914,915,916,917,918,919,920,921,922,923,924,969,966,967,968,969,965,966,817,818,819,820,821,822,823,824,825,826,827,828,969,969,969,1481,1482,1483,1484,1485,1486,1487,1488,969,969,969,969,969,969,969,969,969,969,969,969,969,969,969,969,969,969,969,969,969,969,969,969,969,969,969,969,969,969,969,969,969,969,969,969,969,969,969,969,969,969,969,969,969,969,969,969,969,925,926,927,928,969,969,969,969,969,1057,1058,1059,1060,1061,1062,1063,1064,1065,1066,1067,1068,
241,242,243,244,245,246,244,245,246,247,248,249,244,245,246,247,248,249,246,247,248,249,250,251,252,49,50,51,52,53,54,55,56,57,58,59,60,0,0,0,0,49,50,51,52,53,54,55,56,57,58,59,60,0,0,0,0,0,0,0,1,2,3,4,5,6,7,8,9,10,11,12,0,0,0,0,0,0,145,146,147,148,149,150,151,152,153,154,155,156,0,0,0,0,0,0,301,302,303,304,0,0,0,0,0,0,337,338,339,340,341,342,343,344,345,346,347,348,0,0,0,0,0,0,0,0,13,14,15,16,0,0,0,0,0,0,0,0,0,0,0,0,0,0,0,0,0,0,0,0,0,0,0,0,0,0,1,2,3,4,10,11,12,197,198,199,200,201,201,201,201,201,201,201,198,199,200,1,2,7,8,9,10,11,12,965,966,967,961,962,963,964,965,966,967,968,969,970,971,972,969,966,967,968,969,965,966,865,866,867,868,869,870,871,872,873,874,875,876,1017,1017,1017,1529,1530,1531,1532,1533,1534,1535,1536,1017,1017,1017,1017,1017,1017,1017,1017,1017,1017,1017,1017,1017,1017,1017,1017,1017,1017,1017,1017,1017,1017,1017,1017,1017,1017,1017,1017,1017,1017,1017,1017,1017,1017,1017,1017,1017,1017,1017,1017,1017,1017,1017,1017,1017,1017,1017,1017,1017,973,974,975,976,1017,1017,1017,1017,1017,1105,1106,1107,1108,1109,1110,1111,1112,1113,1114,1115,1116,
289,290,291,292,293,294,292,293,294,295,296,297,292,293,294,295,296,297,294,295,296,297,298,299,300,97,98,99,100,101,102,103,104,105,106,107,108,0,0,0,0,97,98,99,100,101,102,103,104,105,106,107,108,0,0,0,0,0,0,0,49,50,51,52,53,54,55,56,57,58,59,60,0,0,0,0,0,0,193,194,195,196,197,198,199,200,201,202,203,204,0,0,0,0,0,0,349,350,351,352,0,0,0,0,0,0,385,386,387,388,389,390,391,392,393,394,395,396,0,0,0,0,0,0,0,0,61,62,63,64,0,0,0,0,0,0,0,0,0,0,1,2,3,4,5,6,7,8,9,10,11,12,0,0,0,0,49,50,51,52,58,59,60,245,246,247,248,249,201,249,249,249,249,249,201,201,201,49,50,55,56,57,58,59,60,965,966,967,1009,1010,1011,1012,1013,1014,1015,1016,1017,1018,1019,1020,969,966,967,968,969,965,966,913,914,915,916,917,918,919,920,921,922,923,924,1065,1065,1065,1065,1065,1065,1065,1065,1065,1065,1065,1065,1065,1065,1065,1065,1065,1065,1065,1065,1065,1065,1065,1065,1065,1065,1065,1065,1065,1065,1065,1065,1065,1065,1065,1065,1065,1065,1065,1065,1065,1065,1065,1065,1065,1065,1065,1065,1065,1065,1065,1065,1065,1065,1065,1065,1065,1065,1065,1065,1021,1022,1023,1024,1065,1065,1065,1065,1065,1153,1154,1155,1156,1157,1158,1159,1160,1161,1162,1163,1164,
337,338,339,340,341,342,340,341,342,343,344,345,340,341,342,343,344,345,342,343,344,345,346,347,348,145,146,147,148,149,150,151,152,153,154,155,156,0,0,0,0,145,146,147,148,149,150,151,152,153,154,155,435,0,0,0,0,0,0,0,97,98,99,100,101,102,103,104,105,106,107,108,0,0,0,0,0,0,241,242,243,244,245,246,247,248,249,250,251,252,0,0,0,0,0,0,397,398,399,400,0,0,0,0,0,0,193,194,195,196,197,198,199,200,201,202,203,204,0,0,0,0,0,0,0,0,109,110,111,112,0,0,0,0,0,0,0,0,0,0,49,50,51,52,53,54,55,56,57,58,59,60,0,0,0,0,97,98,99,100,106,107,108,293,294,295,296,297,249,297,297,297,297,297,249,249,249,97,98,103,104,105,106,107,108,965,966,967,1057,1058,1059,1060,1061,1062,1063,1064,1065,1066,1067,1068,969,966,967,968,969,965,966,961,962,963,964,965,966,967,968,969,970,971,972,1113,1113,1113,1113,1113,1113,1113,1113,1113,1113,1113,1113,1113,1113,1113,1113,965,965,965,965,965,965,965,965,965,965,965,965,965,965,965,965,965,965,965,965,965,965,965,965,965,769,770,771,772,773,774,775,776,777,778,779,780,965,965,965,965,965,965,965,1069,1070,1071,1072,965,965,965,965,965,1201,1202,1203,1204,1205,1206,1207,1208,1209,1210,1211,1212,
385,386,387,388,389,390,388,389,390,391,392,393,388,389,390,391,392,393,390,391,392,393,394,395,396,193,194,195,196,197,198,199,200,201,202,203,204,0,0,0,0,193,194,195,196,197,198,199,200,201,202,203,204,0,0,0,0,0,0,0,145,146,147,148,149,150,151,152,153,154,155,156,0,0,0,0,0,0,289,290,291,292,293,294,295,296,297,298,299,300,0,0,0,0,0,0,445,446,447,448,0,0,0,0,0,0,241,242,243,244,245,246,247,248,249,250,251,252,0,0,0,0,0,0,0,0,157,158,159,160,0,0,0,0,0,0,0,0,0,0,97,98,99,100,101,102,103,104,105,106,107,108,0,0,0,0,145,146,147,148,154,155,156,341,342,343,344,345,297,345,345,345,345,345,297,297,297,145,146,151,152,153,154,155,156,965,966,967,1105,1106,1107,1108,1109,1110,1111,1112,1113,1114,1115,1116,969,966,967,968,969,965,966,1009,1010,1011,1012,1013,1014,1015,1016,1017,1018,1019,1020,966,965,965,1013,1061,1061,965,1013,1013,965,965,966,967,968,969,1113,1177,1178,1179,1180,1181,1182,1183,1184,1013,1013,1013,1013,1013,1013,1013,1013,1013,1013,1013,1013,1013,1013,1013,1013,1013,817,818,819,820,821,822,823,824,825,826,827,828,1013,1013,1013,1013,1013,1013,1013,1117,1118,1119,1120,1013,1013,1013,1013,1013,1249,1250,1251,1252,1253,1254,1255,1256,1257,1258,1259,1260,
193,194,195,196,197,198,196,197,198,199,200,201,196,197,198,199,200,201,198,199,200,201,202,203,204,241,242,243,244,245,246,247,248,249,250,251,252,0,0,0,0,241,242,243,244,245,246,247,248,249,250,251,252,0,0,0,0,0,0,0,193,194,195,196,197,198,199,200,201,202,203,204,0,0,0,0,0,0,337,338,339,340,341,342,343,344,345,346,347,348,0,0,0,0,0,0,493,494,495,496,0,0,0,0,0,0,289,290,291,292,293,294,295,296,297,298,299,300,0,0,0,0,0,0,0,0,205,206,207,208,0,0,0,0,0,0,0,0,0,0,145,146,147,148,149,150,151,152,153,154,155,156,0,0,0,0,193,194,195,196,202,203,204,389,390,391,392,393,345,393,393,393,393,393,345,345,345,193,194,199,200,201,202,203,204,965,966,967,1153,1154,1155,1156,1157,1158,1159,1160,1161,1162,1163,1164,969,966,967,968,969,965,966,1057,1058,1059,1060,1061,1062,1063,1064,1065,1066,1067,1068,965,1013,965,965,965,965,965,965,965,965,965,965,965,965,965,965,1225,1226,1227,1228,1229,1230,1231,1232,1061,1061,1061,1061,1061,1061,1061,1061,1061,1061,1061,1061,1061,1061,1061,1061,1061,865,866,867,868,869,870,871,872,873,874,875,876,1061,1061,1061,1061,1061,1061,1061,1165,1166,1167,1168,1061,1061,1061,1061,1061,1297,1298,1299,1300,1301,1302,1303,1304,1305,1306,1307,1308,
241,242,243,244,245,246,244,245,246,247,248,249,244,245,246,247,248,249,246,247,248,249,250,251,252,289,290,291,292,293,294,295,296,297,298,299,300,0,0,0,0,289,290,291,292,293,294,295,296,297,298,299,300,0,0,0,0,0,0,0,241,242,243,244,245,246,247,248,249,250,251,252,0,0,0,0,0,0,193,194,195,196,197,198,199,200,201,202,203,204,0,0,0,0,0,0,541,542,543,544,0,0,0,0,0,0,337,338,339,340,341,342,343,344,345,346,347,348,0,0,0,0,0,0,0,0,253,254,255,256,0,0,0,0,0,0,0,0,0,0,193,194,195,196,197,198,199,200,201,202,203,204,0,0,0,0,241,242,243,244,250,251,252,389,390,391,392,393,393,389,390,391,392,393,393,393,393,241,242,247,248,249,250,251,252,965,966,967,1201,1202,1203,1204,1205,1206,1207,1208,1209,1210,1211,1212,969,966,967,968,969,965,966,1105,1106,1107,1108,1109,1110,1111,1112,1113,1114,1115,1116,1013,1061,1013,1013,1013,1013,1013,1013,1013,1013,1013,1013,1013,1013,1013,1013,1273,1274,1275,1276,1277,1278,1279,1280,1109,1109,1109,1109,1109,1109,1109,1109,1109,1109,1109,1109,1109,1109,1109,1109,1109,913,914,915,916,917,918,919,920,921,922,923,924,1109,1109,1109,1109,1109,1109,1109,1213,1214,1215,1216,1109,1109,1109,1109,1109,1109,1109,1109,1109,1109,1109,1109,1109,1109,1109,1109,1109,
289,290,291,292,293,294,292,293,294,295,296,297,292,293,294,295,296,297,294,295,296,297,298,299,300,337,338,339,340,341,342,343,344,345,346,347,348,0,0,0,0,337,338,339,340,341,342,343,344,345,346,347,348,0,0,0,0,0,0,0,289,290,291,292,293,294,295,296,297,298,299,300,0,0,0,0,0,0,241,242,243,244,245,246,247,248,249,250,251,252,0,0,0,0,0,0,0,0,0,0,0,0,0,0,0,0,385,386,387,388,389,390,391,392,393,394,395,396,0,0,0,0,0,0,0,0,301,302,303,304,0,0,0,0,0,0,0,0,0,0,241,242,243,244,245,246,247,248,249,250,251,252,0,0,0,0,289,290,291,292,298,299,300,296,292,293,294,295,296,297,292,293,294,295,296,297,292,289,290,295,296,297,298,299,300,1013,1014,1015,1249,1250,1251,1252,1253,1254,1255,1256,1257,1258,1259,1260,969,966,967,968,969,965,966,1153,1154,1155,1156,1157,1158,1159,1160,1161,1162,1163,1164,1061,1109,1061,1061,1061,1061,1061,1061,1061,1061,1061,1061,1061,1061,1061,1061,1321,1322,1323,1324,1325,1326,1327,1328,1061,1061,1061,1061,1061,1061,1061,1061,1061,1061,1061,1061,1061,1061,1061,1061,1061,961,962,963,964,965,966,967,968,969,970,971,972,1061,1061,1061,1061,1061,1061,1061,925,926,927,928,1061,1061,1061,1061,1061,1061,1061,1061,1061,1061,1061,1061,1061,1061,1061,1061,1061,
337,338,339,340,341,342,340,341,342,343,344,345,340,341,342,343,344,345,342,343,344,345,346,347,348,193,194,195,196,197,198,199,200,201,202,203,204,0,0,0,0,385,386,387,388,389,390,391,392,393,394,395,396,0,0,0,0,0,0,0,337,338,339,340,341,342,343,344,345,346,347,348,0,0,0,0,0,0,289,290,291,292,293,294,295,296,297,298,299,300,0,0,0,0,0,0,0,0,0,0,0,0,0,0,0,0,193,194,195,196,197,198,199,200,201,202,203,204,0,0,0,0,0,0,0,0,349,350,351,352,0,0,0,0,0,0,0,0,0,0,289,290,291,292,293,294,295,296,297,298,299,300,0,0,0,0,337,338,339,340,346,347,348,344,340,341,342,343,344,345,340,341,342,343,344,345,340,337,338,343,344,345,346,347,348,1061,1062,1063,1297,1298,1299,1300,1301,1302,1303,1304,1305,1306,1307,1308,969,966,967,968,969,965,966,1201,1202,1203,1204,1205,1206,1207,1208,1209,1210,1211,1212,969,969,969,969,969,969,806,807,808,809,810,811,969,969,969,969,1369,1370,1371,1372,1373,1374,1375,1376,969,969,969,969,969,969,969,969,785,786,787,788,789,790,791,792,969,1009,1010,1011,1012,1013,1014,1015,1016,1017,1018,1019,1020,969,969,969,969,969,969,969,973,974,975,976,969,969,969,969,969,969,969,969,969,969,969,969,969,969,969,969,969,
385,386,387,388,389,390,388,389,390,391,392,393,388,389,390,391,392,393,390,391,392,393,394,395,396,241,242,243,244,245,246,247,248,249,250,251,252,0,0,0,0,433,434,435,436,437,438,439,440,441,442,443,444,0,0,0,0,0,0,0,241,242,243,244,245,246,247,248,249,250,251,252,0,0,0,0,0,0,337,338,339,340,341,342,343,344,345,346,347,348,0,0,0,0,0,0,0,0,0,0,0,0,0,0,0,0,241,242,243,244,245,246,247,248,249,250,251,252,0,0,0,0,0,0,0,0,397,398,399,400,0,0,0,0,0,0,0,0,0,0,337,338,339,340,341,342,343,344,345,346,347,348,0,0,0,0,193,194,195,196,394,395,396,197,198,199,200,201,197,198,199,200,201,197,198,199,200,385,386,151,152,153,154,155,156,1109,1110,1111,1112,965,966,965,966,967,968,969,965,966,967,968,969,966,967,968,969,965,966,1249,1250,1251,1252,1253,1254,1255,1256,1257,1258,1259,1260,1017,1017,1017,1017,1017,1017,854,855,856,857,858,859,1017,1017,1017,1017,1417,1418,1419,1420,1421,1422,1423,1424,1017,1017,1017,1017,1017,1017,1017,1017,833,834,835,836,837,838,839,840,1017,1057,1058,1059,1060,1061,1062,1063,1064,1065,1066,1067,1068,1017,1017,1017,1017,1017,1017,1017,1021,1022,1023,1024,1017,1017,1017,1017,785,786,787,788,789,790,791,792,1017,1017,1017,1017,1017,
193,194,195,196,197,198,196,197,198,199,200,201,196,197,198,199,200,201,198,199,200,201,202,203,204,289,290,291,292,293,294,295,296,297,298,299,300,0,0,0,0,481,482,483,484,485,486,487,488,489,490,491,492,0,0,0,0,0,0,0,289,290,291,292,293,294,295,296,297,298,299,300,0,0,0,0,0,0,385,386,387,388,389,390,391,392,393,394,395,396,0,0,0,0,0,0,0,0,0,0,0,0,0,0,0,0,289,290,291,292,293,294,295,296,297,298,299,300,0,0,0,0,0,0,0,0,445,446,447,448,0,0,0,0,0,0,0,0,0,0,193,194,195,196,197,198,199,200,201,202,203,204,0,0,0,0,241,242,243,244,442,443,444,245,246,247,248,249,245,246,247,248,249,245,246,247,248,193,194,199,200,201,202,203,204,965,966,967,968,965,966,965,966,967,968,969,965,966,967,968,969,966,967,968,969,965,966,1297,1298,1299,1300,1301,1302,1303,1304,1305,1306,1307,1308,1065,1065,1065,1065,1065,1065,902,903,904,905,906,907,1065,1065,1065,1065,1465,1466,1467,1468,1469,1470,1471,1472,1065,1065,1065,1065,1065,1065,1065,1065,881,882,883,884,885,886,887,888,1065,1105,1106,1107,1108,1109,1110,1111,1112,1113,1114,1115,1116,1065,1065,1065,1065,1065,1065,1065,1069,1070,1071,1072,1065,1065,1065,1065,833,834,835,836,837,838,839,840,1065,1065,1065,1065,1065,
241,242,243,244,245,246,244,245,246,247,248,249,244,245,246,247,248,249,246,247,248,249,250,251,252,337,338,339,340,341,342,343,344,345,346,347,348,0,0,0,0,529,530,531,532,533,534,535,536,537,538,539,540,0,0,0,0,0,0,0,337,338,339,340,341,342,343,344,345,346,347,348,0,0,0,0,0,0,193,194,195,196,197,198,199,200,201,202,203,204,0,0,0,0,0,0,0,0,0,0,0,0,0,0,0,0,337,338,339,340,341,342,343,344,345,346,347,348,0,0,0,0,0,0,0,0,493,494,495,496,0,0,0,0,0,0,0,0,0,0,241,242,243,244,245,246,247,248,249,250,251,252,0,0,0,0,289,290,291,292,154,155,156,293,294,295,296,297,293,294,295,296,297,293,294,295,296,241,242,247,248,249,250,251,252,965,966,967,968,965,966,965,966,967,968,969,965,966,967,968,969,966,967,968,969,965,966,967,968,969,966,967,968,1109,1110,1111,1112,1113,1113,1113,1113,1113,1113,1113,1113,950,951,952,953,954,955,1113,1113,1113,1113,1513,1514,1515,1516,1517,1518,1519,1520,1113,1113,1113,1113,1113,1113,1113,1113,929,930,931,932,933,934,935,936,1113,1153,1154,1155,1156,1157,1158,1159,1160,1161,1162,1163,1164,1113,1113,1113,1113,1113,1113,1113,1117,1118,1119,1120,1113,1113,1113,1113,881,882,883,884,885,886,887,888,1113,1113,1113,1113,1113,
289,290,291,292,293,294,292,293,294,295,296,297,292,293,294,295,296,297,294,295,296,297,298,299,300,385,386,387,388,389,390,391,392,393,394,395,396,0,0,0,0,0,0,0,0,0,0,0,0,0,0,0,0,0,0,0,0,0,0,0,385,386,387,388,389,390,391,392,393,394,395,396,0,0,0,0,0,0,241,242,243,244,245,246,247,248,249,250,251,252,0,0,0,0,0,0,0,0,0,0,0,0,0,0,0,0,385,386,387,388,389,390,391,392,393,394,395,396,0,0,0,0,0,0,0,0,541,542,543,544,0,0,0,0,0,0,0,0,0,0,289,290,291,292,293,294,295,296,297,298,299,300,0,0,0,0,337,338,339,340,202,203,204,341,342,343,344,345,341,342,343,344,345,341,342,343,344,289,290,295,296,297,298,299,300,965,966,967,968,965,965,966,967,968,969,969,969,969,969,969,969,969,969,969,969,969,969,969,969,969,969,969,969,969,969,969,969,969,969,969,969,969,969,969,969,998,999,1000,1001,1002,1003,969,969,969,969,1177,1178,1179,1180,1181,1182,1183,1184,969,969,969,969,969,969,969,969,977,978,979,980,981,982,983,984,969,961,962,963,964,965,966,967,968,969,970,971,972,969,969,969,969,969,969,969,1165,1166,1167,1168,969,969,969,969,929,930,931,932,933,934,935,936,969,969,969,969,969,
337,338,339,340,341,342,340,341,342,343,344,345,340,341,342,343,344,345,342,343,344,345,346,347,348,193,194,195,196,197,198,199,200,201,202,203,204,0,0,0,0,0,0,0,0,0,0,0,0,0,0,0,0,0,0,0,0,0,0,0,241,242,243,244,245,246,247,248,249,250,251,252,0,0,0,0,0,0,289,290,291,292,293,294,295,296,297,298,299,300,0,0,0,0,0,0,0,0,0,0,0,0,0,0,0,0,193,194,195,196,197,198,199,200,201,202,203,204,0,0,0,0,0,0,0,0,0,0,0,0,0,0,0,0,0,0,0,0,0,0,337,338,339,340,341,342,343,344,345,346,347,348,0,0,0,0,385,386,387,388,250,251,252,389,390,391,392,393,389,390,391,392,393,389,390,391,392,337,338,343,344,345,346,347,348,965,966,967,968,965,1013,1014,1015,1016,1017,1017,1017,1017,1017,1017,1017,1017,1017,1017,1017,1017,1017,1017,1017,1017,1017,1017,1017,1017,1017,1017,1017,1017,1017,1017,1017,1017,1017,1017,1017,1046,1047,1048,1049,1050,1051,1017,1017,1017,1017,1225,1226,1227,1228,1229,1230,1231,1232,1017,1017,1017,1017,1017,1017,1017,1017,1025,1026,1027,1028,1029,1030,1031,1032,1017,1009,1010,1011,1012,1013,1014,1015,1016,1017,1018,1019,1020,1017,1017,1017,1017,1017,1017,1017,1213,1214,1215,1216,1017,1017,1017,1017,977,978,979,980,981,982,983,984,1017,1017,1017,1017,1017,
385,386,387,388,389,390,388,389,390,391,392,393,388,389,390,391,392,393,390,391,392,393,394,395,396,241,242,243,244,245,246,247,248,249,250,251,252,0,0,0,0,0,0,0,0,0,0,0,0,0,0,0,0,0,0,0,0,0,0,0,289,290,291,292,293,294,295,296,297,298,299,300,0,0,0,0,0,0,337,338,339,340,341,342,343,344,345,346,347,348,0,0,0,0,0,0,0,0,0,0,0,0,0,0,0,0,241,242,243,244,245,246,247,248,249,250,251,252,0,0,0,0,0,0,0,0,0,0,0,0,0,0,0,0,0,0,0,0,0,0,193,194,195,196,197,198,199,200,201,202,203,204,0,0,0,0,193,194,195,196,298,299,300,197,198,199,200,201,197,198,199,200,201,197,198,199,200,385,386,391,392,393,394,395,396,965,966,967,968,965,1061,1062,1063,1064,1065,1065,1065,1065,1065,1065,1065,1065,1065,1065,1065,1065,1065,1065,1065,1065,1065,1065,1065,1065,1065,1065,1065,1065,1065,1065,1065,1065,1065,1065,1065,1094,1095,1096,1097,1098,1099,1065,1065,1065,1065,1273,1274,1275,1276,1277,1278,1279,1280,1065,1065,1065,1065,1065,1065,1065,1065,1073,1074,1075,1076,1077,1078,1079,1080,1065,1057,1058,1059,1060,1061,1062,1063,1064,1065,1066,1067,1068,1065,1065,1065,1065,1065,1065,1065,925,926,927,928,1065,1065,1065,1065,1025,1026,1027,1028,1029,1030,1031,1032,1065,1065,1065,1065,1065,
193,194,195,196,197,198,196,197,198,199,200,201,196,197,198,199,200,201,198,199,200,201,202,203,204,289,290,291,292,293,294,295,296,297,298,299,300,0,0,0,0,0,0,0,0,0,0,0,0,0,0,0,0,0,0,0,0,0,0,0,337,338,339,340,341,342,343,344,345,346,347,348,0,0,0,0,0,0,385,386,387,388,389,390,391,392,393,394,395,396,0,0,0,0,0,0,0,0,0,0,0,0,0,0,0,0,289,290,291,292,293,294,295,296,297,298,299,300,0,0,0,0,0,0,0,0,0,0,0,0,0,0,0,0,0,0,0,0,0,0,241,242,243,244,245,246,247,248,249,250,251,252,0,0,0,0,241,242,243,244,346,347,348,245,246,247,248,249,245,246,247,248,249,245,246,247,248,193,194,151,152,153,154,155,156,965,966,967,968,965,1109,1110,1111,1112,1113,1113,1113,1113,1113,1113,1113,1113,1113,1113,1113,1113,1113,1113,1113,1113,1113,1113,1113,1113,1113,1113,1113,1113,1113,1113,1113,1113,1113,1113,1113,1113,1113,1113,1113,1113,1113,1113,1113,1113,1113,1321,1322,1323,1324,1325,1326,1327,1328,1113,1113,1113,1113,1113,1113,1113,1113,1121,1122,1123,1124,1125,1126,1127,1128,1113,1105,1106,1107,1108,1109,1110,1111,1112,1113,1114,1115,1116,1113,1113,1113,1113,1113,1113,1113,973,974,975,976,1113,1113,1113,1113,1073,1074,1075,1076,1077,1078,1079,1080,1113,1113,1113,1113,1113
</data>
 </layer>
 <objectgroup id="13" name="TrollZones">
  <object id="215" x="400" y="544" width="192" height="256">
   <properties>
    <property name="id" type="int" value="1"/>
   </properties>
  </object>
  <object id="216" x="1248" y="304" width="192" height="208">
   <properties>
    <property name="id" type="int" value="2"/>
   </properties>
  </object>
  <object id="227" x="1696" y="528" width="192" height="160">
   <properties>
    <property name="id" type="int" value="3"/>
   </properties>
  </object>
  <object id="260" x="2832" y="560" width="128" height="240">
   <properties>
    <property name="id" type="int" value="4"/>
   </properties>
  </object>
  <object id="274" x="3760" y="144" width="128" height="192">
   <properties>
    <property name="id" type="int" value="5"/>
   </properties>
  </object>
  <object id="276" x="3760" y="608" width="128" height="192">
   <properties>
    <property name="id" type="int" value="6"/>
   </properties>
  </object>
  <object id="288" x="4224" y="272" width="64" height="64">
   <properties>
    <property name="id" type="int" value="7"/>
   </properties>
  </object>
 </objectgroup>
 <objectgroup id="14" name="Boxes">
  <object id="177" name="NormalBox" x="368" y="448" width="32" height="32"/>
 </objectgroup>
 <objectgroup id="12" name="Triggers">
  <object id="213" x="400" y="512" width="144" height="16">
   <properties>
    <property name="id" type="int" value="1"/>
   </properties>
  </object>
  <object id="214" x="0" y="0" width="48" height="48">
   <properties>
    <property name="id" type="int" value="2"/>
   </properties>
  </object>
  <object id="228" x="1680" y="672" width="16" height="16">
   <properties>
    <property name="id" type="int" value="3"/>
   </properties>
  </object>
  <object id="261" x="2880" y="528" width="48" height="16">
   <properties>
    <property name="id" type="int" value="4"/>
   </properties>
  </object>
  <object id="275" x="3744" y="320" width="16" height="16">
   <properties>
    <property name="id" type="int" value="5"/>
   </properties>
  </object>
  <object id="277" x="3760" y="576" width="128" height="16">
   <properties>
    <property name="id" type="int" value="6"/>
   </properties>
  </object>
  <object id="289" x="2960" y="0" width="64" height="64">
   <properties>
    <property name="id" type="int" value="7"/>
   </properties>
  </object>
 </objectgroup>
 <objectgroup id="8" name="Water">
  <object id="18" name="water" x="592" y="736" width="368" height="64"/>
  <object id="197" name="water" x="1152" y="656" width="96" height="144"/>
  <object id="224" name="water" x="1440" y="720" width="256" height="80"/>
  <object id="231" name="water" x="1888" y="752" width="352" height="48"/>
  <object id="262" name="water" x="2432" y="752" width="64" height="48"/>
 </objectgroup>
 <objectgroup id="29" name="Checkpoints">
  <object id="307" x="2832" y="480" width="32" height="80"/>
  <object id="317" x="1536" y="384" width="32" height="80"/>
 </objectgroup>
 <objectgroup id="30" name="CR7"/>
 <objectgroup id="23" name="CutsceneData">
  <object id="312" name="pancam" x="80" y="320" width="19.3333" height="153.333"/>
  <object id="313" name="cam_end" x="4352" y="320" width="19.3333" height="153.333"/>
  <object id="314" name="escapebatman" x="4720" y="288" width="19.3333" height="153.333"/>
 </objectgroup>
 <objectgroup id="9" name="Crab">
  <object id="217" name="Crab" x="704" y="496" width="72" height="32"/>
  <object id="237" name="Crab" x="2336" y="544" width="72" height="32"/>
  <object id="239" name="Crab" x="2320" y="544" width="72" height="32"/>
  <object id="263" name="Crab" x="3104" y="464" width="72" height="32"/>
  <object id="264" name="Crab" x="3360" y="496" width="72" height="32"/>
  <object id="302" name="Crab" x="3248" y="128" width="72" height="32"/>
  <object id="303" name="Crab" x="4624" y="400" width="72" height="32"/>
 </objectgroup>
 <objectgroup id="7" name="Shell">
  <object id="203" name="Shell" type="Enemy" x="976" y="512" width="48" height="38"/>
  <object id="236" name="Shell" type="Enemy" x="2256" y="528" width="48" height="38"/>
  <object id="272" name="Shell" type="Enemy" x="3424" y="96" width="48" height="38"/>
  <object id="285" name="Shell" type="Enemy" x="4112" y="400" width="48" height="38"/>
  <object id="304" name="Shell" type="Enemy" x="4576" y="192" width="48" height="38"/>
 </objectgroup>
 <objectgroup id="3" name="Objects">
  <object id="316" name="Player" type="PlayerStart" x="16" y="432" width="32" height="32"/>
 </objectgroup>
 <objectgroup id="22" name="Batman">
  <object id="315" name="Batman" x="4608" y="368" width="64" height="64"/>
 </objectgroup>
 <objectgroup id="5" name="Platforms">
  <object id="220" name="HorizontalPlatform" x="912" y="272" width="64" height="16">
   <properties>
    <property name="EndX" type="float" value="1350"/>
    <property name="Speed" type="float" value="2.5"/>
    <property name="startX" type="float" value="860"/>
   </properties>
  </object>
  <object id="265" name="HorizontalPlatform" x="2992" y="352" width="64" height="16">
   <properties>
    <property name="EndX" type="float" value="3070"/>
    <property name="Speed" type="float" value="2.5"/>
    <property name="startX" type="float" value="2990"/>
   </properties>
  </object>
  <object id="284" name="HorizontalPlatform" x="3968" y="400" width="64" height="16">
   <properties>
    <property name="EndX" type="float" value="4050"/>
    <property name="Speed" type="float" value="2.5"/>
    <property name="startX" type="float" value="3950"/>
   </properties>
  </object>
  <object id="266" name="HorizontalPlatform" x="3040" y="224" width="64" height="16">
   <properties>
    <property name="EndX" type="float" value="3088"/>
    <property name="Speed" type="float" value="2.5"/>
    <property name="startX" type="float" value="3000"/>
   </properties>
  </object>
  <object id="238" name="DevilPlatform" x="1952" y="112" width="64" height="16">
   <properties>
    <property name="EndX" type="float" value="2050"/>
    <property name="Speed" type="float" value="1.5"/>
    <property name="startX" type="float" value="1950"/>
   </properties>
  </object>
  <object id="283" name="DevilPlatform" x="3968" y="576" width="64" height="16">
   <properties>
    <property name="EndX" type="float" value="4050"/>
    <property name="Speed" type="float" value="1.5"/>
    <property name="startX" type="float" value="3950"/>
   </properties>
  </object>
 </objectgroup>
 <objectgroup id="6" name="Collectables">
  <object id="204" name="gold" x="1104" y="528" width="16" height="16">
   <properties>
    <property name="type" value="Coin"/>
   </properties>
  </object>
  <object id="205" name="gold" x="1072" y="528" width="16" height="16">
   <properties>
    <property name="type" value="Coin"/>
   </properties>
  </object>
  <object id="246" name="gold" x="1984" y="64" width="16" height="16">
   <properties>
    <property name="type" value="Coin"/>
   </properties>
  </object>
  <object id="247" name="gold" x="1712" y="400" width="16" height="16">
   <properties>
    <property name="type" value="Coin"/>
   </properties>
  </object>
  <object id="248" name="gold" x="928" y="224" width="16" height="16">
   <properties>
    <property name="type" value="Coin"/>
   </properties>
  </object>
  <object id="249" name="gold" x="256" y="448" width="16" height="16">
   <properties>
    <property name="type" value="Coin"/>
   </properties>
  </object>
  <object id="250" name="gold" x="2416" y="528" width="16" height="16">
   <properties>
    <property name="type" value="Coin"/>
   </properties>
  </object>
  <object id="278" name="gold" x="3056" y="448" width="16" height="16">
   <properties>
    <property name="type" value="Coin"/>
   </properties>
  </object>
  <object id="279" name="gold" x="3024" y="448" width="16" height="16">
   <properties>
    <property name="type" value="Coin"/>
   </properties>
  </object>
  <object id="295" name="gold" x="3584" y="400" width="16" height="16">
   <properties>
    <property name="type" value="Coin"/>
   </properties>
  </object>
  <object id="296" name="gold" x="3632" y="400" width="16" height="16">
   <properties>
    <property name="type" value="Coin"/>
   </properties>
  </object>
  <object id="297" name="gold" x="4192" y="560" width="16" height="16">
   <properties>
    <property name="type" value="Coin"/>
   </properties>
  </object>
  <object id="298" name="gold" x="4224" y="560" width="16" height="16">
   <properties>
    <property name="type" value="Coin"/>
   </properties>
  </object>
  <object id="299" name="gold" x="4496" y="336" width="16" height="16">
   <properties>
    <property name="type" value="Coin"/>
   </properties>
  </object>
  <object id="300" name="gold" x="4496" y="288" width="16" height="16">
   <properties>
    <property name="type" value="Coin"/>
   </properties>
  </object>
  <object id="281" name="gold" x="3792" y="544" width="16" height="16">
   <properties>
    <property name="type" value="Coin"/>
   </properties>
  </object>
  <object id="251" name="gold" x="2416" y="496" width="16" height="16">
   <properties>
    <property name="type" value="Coin"/>
   </properties>
  </object>
  <object id="206" name="gold" x="1104" y="496" width="16" height="16">
   <properties>
    <property name="type" value="Coin"/>
   </properties>
  </object>
  <object id="207" name="gold" x="1072" y="496" width="16" height="16">
   <properties>
    <property name="type" value="Coin"/>
   </properties>
  </object>
  <object id="208" name="diamond" x="192" y="64" width="16" height="16">
   <properties>
    <property name="type" value="Coin"/>
   </properties>
  </object>
  <object id="252" name="diamond" x="1792" y="80" width="16" height="16">
   <properties>
    <property name="type" value="Coin"/>
   </properties>
  </object>
  <object id="242" name="Red" x="1760" y="80" width="16" height="16">
   <properties>
    <property name="type" value="Potion"/>
   </properties>
  </object>
  <object id="243" name="Red" x="1728" y="80" width="16" height="16">
   <properties>
    <property name="type" value="Potion"/>
   </properties>
  </object>
 </objectgroup>
 <objectgroup id="26" name="InvisBlocks">
  <object id="225" x="1936" y="192" width="16" height="352">
   <properties>
    <property name="Solid" type="bool" value="true"/>
   </properties>
  </object>
  <object id="267" x="3248" y="352" width="16" height="352">
   <properties>
    <property name="Solid" type="bool" value="true"/>
   </properties>
  </object>
  <object id="306" x="4560" y="256" width="16" height="176">
   <properties>
    <property name="Solid" type="bool" value="true"/>
   </properties>
  </object>
  <object id="301" x="2704" y="400" width="16" height="208">
   <properties>
    <property name="Solid" type="bool" value="true"/>
   </properties>
  </object>
 </objectgroup>
 <objectgroup id="25" name="Flag">
  <object id="305" x="4752" y="336" width="48" height="112"/>
 </objectgroup>
 <objectgroup id="11" name="Traps">
  <object id="202" name="spike" x="304" y="448" width="32" height="32"/>
  <object id="270" name="spike" x="3184" y="128" width="32" height="32"/>
  <object id="271" name="spike" x="3440" y="496" width="32" height="32"/>
  <object id="221" name="spikedball" x="1776" y="304" width="16" height="16">
   <properties>
    <property name="chainLength" type="int" value="5"/>
    <property name="radius" type="float" value="30"/>
   </properties>
  </object>
 </objectgroup>
 <objectgroup id="28" name="PalmTree">
  <object id="174" x="96" y="416" width="64" height="64"/>
  <object id="198" x="736" y="96" width="64" height="64"/>
  <object id="199" x="704" y="96" width="64" height="64"/>
  <object id="222" x="1824" y="384" width="64" height="64"/>
  <object id="244" x="2016" y="496" width="64" height="64"/>
  <object id="245" x="2032" y="496" width="64" height="64"/>
  <object id="223" x="1760" y="352" width="96" height="96"/>
  <object id="200" x="784" y="128" width="32" height="32"/>
  <object id="180" x="448" y="480" width="64" height="64"/>
  <object id="175" x="144" y="400" width="80" height="80"/>
 </objectgroup>
</map>
