<?xml version="1.0" encoding="UTF-8"?>
<map version="1.10" tiledversion="1.12.1" orientation="orthogonal" renderorder="right-down" width="300" height="50" tilewidth="16" tileheight="16" infinite="0" nextlayerid="26" nextobjectid="165">
 <tileset firstgid="1" source="../tilesets/outside.tsx"/>
 <tileset firstgid="769" source="../tilesets/inside.tsx"/>
 <objectgroup id="15" name="EvilCoins"/>
 <objectgroup id="24" name="GhostBlocks"/>
 <layer id="2" name="Tile Layer 1" width="300" height="50">
  <data encoding="csv">
965,965,965,965,965,965,965,965,965,965,965,965,965,965,965,965,965,965,965,965,965,965,965,965,965,965,965,965,965,965,965,965,965,965,965,965,965,965,965,965,965,865,866,867,868,869,870,871,872,873,874,875,876,965,965,965,965,965,965,965,781,782,783,784,965,965,965,965,965,965,965,965,965,965,965,965,965,965,965,965,965,965,965,965,965,965,965,965,965,965,965,965,965,965,965,965,965,965,965,965,965,965,965,965,965,965,965,965,965,965,865,866,867,868,869,870,871,872,873,874,875,876,965,965,965,965,965,965,965,965,965,965,965,965,965,965,965,965,965,965,965,965,965,965,965,965,965,965,965,965,965,965,965,965,965,965,965,965,965,965,965,965,965,965,965,965,965,965,965,965,965,965,965,965,965,965,965,965,965,965,965,965,965,965,965,965,965,965,965,965,965,965,965,965,965,965,965,965,965,965,965,965,965,965,965,965,965,965,965,965,965,1741,1742,1743,1744,965,965,965,965,965,965,965,965,965,965,965,965,965,965,965,965,965,965,965,965,965,965,965,965,965,965,965,965,965,965,965,965,965,965,965,965,965,965,965,965,965,965,965,965,965,965,965,965,1009,1010,1011,1012,1013,1014,1015,1016,1017,1018,1019,1020,965,965,965,965,965,965,965,965,965,965,965,965,965,965,965,965,965,1177,1178,1179,1180,1181,1182,1183,1184,
1013,1013,1013,1013,1013,1013,1013,1013,1013,1013,1013,1013,1013,1013,1013,1013,1013,1013,1013,1013,1013,1013,1013,1013,1013,1013,1013,1013,1013,1013,1013,1013,1013,1013,1013,1013,1013,1013,1013,1013,1013,913,914,915,916,917,918,919,920,921,922,923,924,1013,1013,1013,1013,1013,1013,1013,829,830,831,832,1013,1013,1013,1013,1013,1013,1013,1013,1013,1013,1013,1013,1013,1013,1013,1013,1013,1013,1013,1013,1013,1013,1013,1013,1013,1013,1013,1013,1013,1013,1013,1013,1013,1013,1013,1013,1013,1013,1013,1013,1013,1013,1013,1013,1013,1013,913,914,915,916,917,918,919,920,921,922,923,924,1013,1013,1013,1013,1013,1013,1013,1013,1013,1013,1013,1013,1013,1013,1013,1013,1013,1013,1013,1013,1013,1013,1013,1013,1013,1013,1013,1013,1013,1013,1013,1013,1013,1013,1013,1013,1013,1013,1013,1013,1013,1013,1013,1013,1013,1013,1013,1013,1013,1013,1013,1013,1013,1013,1013,1013,1013,1013,1013,1013,1013,1013,1013,1013,1013,1013,1013,1013,1013,1013,1013,1013,1013,1013,1013,1013,1013,1013,1013,1013,1013,1013,1013,1013,1013,1013,1013,1013,1013,1789,1790,1791,1792,1013,1013,1013,1013,1013,1013,1013,1013,1013,1013,1013,1013,1013,1013,1013,1013,1013,1013,1013,1013,1013,1013,1013,1013,1013,1013,1013,1013,1013,1013,1013,1013,1013,1013,1013,1013,1013,1013,1013,1013,1013,1013,1013,1013,1013,1013,1013,1013,1057,1058,1059,1060,1061,1062,1063,1064,1065,1066,1067,1068,1013,1013,1013,1013,1013,1013,1013,1013,1553,1554,1555,1556,1557,1558,1559,1560,1013,1225,1226,1227,1228,1229,1230,1231,1232,
1061,1061,1061,1061,1061,1061,1061,1061,1061,1061,1061,1061,1061,1061,1061,1061,1061,1061,1061,1061,1061,1061,1061,1061,1061,1061,1061,1061,1061,1061,1061,1061,1061,1061,1061,1061,1061,1061,1061,1061,1061,961,962,963,964,965,966,967,968,969,970,971,972,1061,1061,1061,1061,1061,1061,1061,877,878,879,880,1061,1061,1061,1061,1061,1061,1061,1061,1061,1061,1061,1061,1061,1061,1061,1061,1061,1061,1061,1061,1061,1061,1061,1061,1061,1061,1061,1061,1061,1061,1061,1061,1061,1061,1061,1061,1061,1061,1061,1061,1061,1061,1061,1061,1061,1061,961,962,963,964,965,966,967,968,969,970,971,972,1061,1061,1061,1061,1061,1061,1061,1061,1061,1061,1061,1061,1061,1061,785,786,787,788,789,790,791,792,1061,1061,1061,1061,1061,1061,1061,1061,1061,1061,1061,1061,1061,1061,1061,1061,1061,1061,1061,1061,1061,1061,1061,1061,1061,1061,1061,1061,1061,1061,1061,1061,1061,1061,1061,1061,1061,1061,1061,1061,1061,1061,1061,1061,1061,1061,1061,1061,1061,1061,1061,1061,1061,1061,1061,1061,1061,1061,1061,1061,1061,1061,1061,1061,1061,1061,1061,1837,1838,1839,1840,1061,1061,1061,1061,1061,1061,1061,1061,1061,1061,1061,1061,1061,1061,1061,1061,1061,1061,1061,1061,1061,1061,1061,1061,1061,1061,1061,1061,1061,1061,1061,1061,1061,1061,1061,1061,1061,1061,1061,1061,1061,1061,1061,1061,1061,1061,1061,1061,1105,1106,1107,1108,1109,1110,1111,1112,1113,1114,1115,1116,1061,1061,1061,1061,1061,1061,1061,1061,1601,1602,1603,1604,1605,1606,1607,1608,1061,1273,1274,1275,1276,1277,1278,1279,1280,
965,965,965,965,965,965,965,965,965,965,965,965,965,965,965,965,965,965,965,965,965,965,965,965,965,965,965,965,965,965,965,965,965,965,965,965,965,965,965,965,965,1009,1010,1011,1012,1013,1014,1015,1016,1017,1018,1019,1020,965,965,965,965,965,965,965,925,926,927,928,965,965,965,965,965,965,965,965,965,965,965,965,965,965,965,965,965,965,965,965,965,965,965,965,965,965,965,965,965,965,965,965,965,965,965,965,965,965,965,965,965,965,965,965,965,965,1009,1010,1011,1012,1013,1014,1015,1016,1017,1018,1019,1020,965,965,965,965,965,965,965,965,965,965,965,965,965,965,833,834,835,836,837,838,839,840,965,965,965,965,965,965,965,965,965,965,965,965,965,965,965,965,965,965,965,965,965,965,965,965,965,965,965,965,965,965,965,965,965,965,965,965,965,965,965,965,965,965,965,965,965,965,965,965,965,965,965,965,965,965,965,965,965,965,965,965,965,965,785,786,787,788,789,790,791,792,1888,965,965,965,965,965,965,965,965,965,965,965,965,965,965,965,965,965,965,965,965,965,965,965,965,965,965,965,965,965,965,965,965,965,965,965,965,965,965,965,965,965,965,965,965,965,965,965,965,1153,1154,1155,1156,1157,1158,1159,1160,1161,1162,1163,1164,965,965,965,965,965,965,965,965,1649,1650,1651,1652,1653,1654,1655,1656,965,1321,1322,1323,1324,1325,1326,1327,1328,
1013,1013,1013,1013,1013,1013,1013,1013,1013,1013,1013,1013,1013,1013,1013,1013,1013,1013,1013,1013,1013,1013,1013,1013,1013,1013,1013,1013,1013,1013,1013,1013,1013,1013,1013,1013,1013,1013,1013,1013,1013,1057,1058,1059,1060,1061,1062,1063,1064,1065,1066,1067,1068,1013,1013,1013,1013,1013,1013,1013,973,974,975,976,1013,1013,1013,1013,1013,1013,1013,1013,1013,1013,1013,1013,1013,1013,1013,1013,1013,1013,1013,1013,1013,1013,1013,1013,1013,1013,1013,1013,1013,1013,1013,1013,1013,1013,1013,1013,1013,1013,1013,1013,1013,1013,1013,1013,1013,1013,1057,1058,1059,1060,1061,1062,1063,1064,1065,1066,1067,1068,1013,1013,1013,1013,1013,1013,1013,1013,1013,1013,1013,1013,1013,1013,881,882,883,884,885,886,887,888,1013,1013,1013,1013,1013,1013,1961,1962,1963,1964,1965,1966,1967,1968,1013,1013,1013,1013,1013,1013,1013,1013,1013,1013,1013,1013,1013,1013,1013,1013,1013,1013,1013,1013,1013,1013,1013,1013,1013,1013,1013,1013,1013,1013,1013,1013,1013,1013,1013,1013,1013,1013,1013,1013,1013,1013,1013,1013,1013,1013,1013,1013,833,834,835,836,837,838,839,840,1936,1013,1013,1013,1013,1013,1013,1013,1013,1013,785,786,787,788,789,790,791,792,1013,1013,1013,1013,1013,1013,1013,1013,1013,1013,1013,1013,1013,1013,1013,1013,1013,1013,1013,1013,1013,1013,1013,1013,1013,1013,1013,1013,1013,1013,1013,1201,1202,1203,1204,1205,1206,1207,1208,1209,1210,1211,1212,1013,1013,1013,1013,1013,1013,1013,1013,1697,1698,1699,1700,1701,1702,1703,1704,1013,1369,1370,1371,1372,1373,1374,1375,1376,
1061,1061,1061,1061,1061,1061,1061,1061,1061,1061,1061,1061,1061,1061,1061,1061,1061,1061,1061,1061,1061,1061,1061,1061,1061,1061,1061,1061,1061,1061,1061,1061,1061,1061,1061,1061,1061,1061,1061,1061,1061,1105,1106,1107,1108,1109,1110,1111,1112,1113,1114,1115,1116,1061,1061,1061,1061,1061,1061,1061,1021,1022,1023,1024,1061,1061,1061,1061,1061,1061,1061,1061,1061,1061,1061,1061,1061,1061,1061,785,786,787,788,789,790,791,792,1061,1061,1061,1061,1061,1061,1061,1061,1061,1061,1061,1061,1061,1061,1061,1061,1061,1061,1061,1061,1061,1061,1061,1105,1106,1107,1108,1109,1110,1111,1112,1113,1114,1115,1116,1061,1061,1061,1061,1061,1061,1061,1061,1061,1061,1061,1061,1061,1061,929,930,931,932,933,934,935,936,1061,1061,1061,1061,1061,1061,2009,2010,2011,2012,2013,2014,2015,2016,1061,1061,1061,1061,1061,1061,1061,1061,1061,1061,1061,1061,1061,1061,1061,1061,1061,1061,1061,1061,1061,1061,1061,1061,1061,1061,1061,1061,1061,1061,1061,1061,1061,1061,1061,1061,1061,1061,1061,1061,1061,1061,1061,1061,1061,1061,1061,1061,881,882,883,884,885,886,887,888,1984,1061,1061,1061,1061,1061,1061,1061,1061,1061,833,834,835,836,837,838,839,840,1061,1061,1061,1061,1061,1061,1061,1061,1061,1061,1061,1061,1061,1061,1061,1061,1061,1061,1061,1061,1061,1061,1061,1061,1061,1061,1061,1061,1061,1061,1061,1249,1250,1251,1252,1253,1254,1255,1256,1257,1258,1259,1260,1061,1061,1061,1061,1061,1061,1061,1061,1745,1746,1747,1748,1749,1750,1751,1752,1061,1417,1418,1419,1420,1421,1422,1423,1424,
965,965,965,965,965,965,965,965,965,965,965,965,965,965,965,965,965,965,965,965,965,965,785,786,787,788,789,790,791,792,965,965,965,965,965,965,965,965,965,965,965,1153,1154,1155,1156,1157,1158,1159,1160,1161,1162,1163,1164,965,965,965,965,965,965,965,1069,1070,1071,1072,965,965,965,965,965,965,965,965,965,965,965,965,965,965,965,833,834,835,836,837,838,839,840,965,965,965,965,965,965,965,965,965,965,965,965,965,965,965,965,965,965,965,965,965,965,965,1153,1154,1155,1156,1157,1158,1159,1160,1161,1162,1163,1164,965,965,965,965,965,965,965,965,965,965,965,965,965,965,977,978,979,980,981,982,983,984,965,965,965,965,965,965,2057,2058,2059,2060,2061,2062,2063,2064,965,965,965,965,965,965,965,965,965,965,965,965,965,965,965,965,965,965,965,965,965,965,965,965,965,965,965,965,965,965,965,965,965,965,965,965,965,965,965,965,965,965,965,965,965,965,965,965,929,930,931,932,933,934,935,936,2032,965,965,965,965,965,965,965,965,965,881,882,883,884,885,886,887,888,965,965,965,965,965,965,965,965,965,965,965,965,965,965,965,965,965,965,965,965,965,965,965,965,965,965,965,965,965,965,965,1297,1298,1299,1300,1301,1302,1303,1304,1305,1306,1307,1308,965,965,965,965,965,965,965,965,1793,1794,1795,1796,1797,1798,1799,1800,965,1465,1466,1467,1468,1469,1470,1471,1472,
773,774,775,776,777,778,779,780,1013,1013,1013,1013,1013,1013,1013,1013,1013,1013,1013,1013,1013,1013,833,834,835,836,837,838,839,840,1013,1013,1013,1013,1013,1013,1013,1013,1013,1013,1013,1201,1202,1203,1204,1205,1206,1207,1208,1209,1210,1211,1212,1013,1013,1013,1013,1013,1013,1013,1117,1118,1119,1120,1013,1013,1013,1013,1013,1013,1013,1013,1013,1013,1013,1013,1013,1013,1013,881,882,883,884,885,886,887,888,1013,1013,1013,1013,1013,1013,1013,1013,1013,1013,1013,1013,1013,1013,1013,1013,1013,1013,1013,1013,1013,1013,1013,1201,1202,1203,1204,1205,1206,1207,1208,1209,1210,1211,1212,1013,1013,1013,1013,1013,1013,1013,1013,1013,1013,1013,1013,1013,1013,1025,1026,1027,1028,1029,1030,1031,1032,1013,1013,1013,1013,1013,1013,2105,2106,2107,2108,2109,2110,2111,2112,1013,1013,1013,1013,1013,1013,1013,1013,1013,1013,1013,1013,1013,1013,1013,1013,1013,1013,1013,1013,1013,1013,1013,1013,1013,1013,1013,1013,1013,1013,1013,1013,1013,1013,1013,1013,1345,1346,1347,1348,1349,1350,1351,1352,1353,1354,1355,1356,977,978,979,980,981,982,983,984,2080,1013,1013,1013,1013,1013,1013,1013,1013,1013,929,930,931,932,933,934,935,936,1013,1013,1013,1013,1013,1013,1013,1013,1013,1013,1013,1013,1013,1013,1013,1013,1013,1013,1013,1013,1013,1013,1013,1013,1013,1013,1013,1013,1013,1013,1013,1013,1013,1013,1013,1013,1013,1013,1013,1013,1013,1013,1013,1013,1013,1013,1013,1013,1013,1013,1013,1841,1842,1843,1844,1845,1846,1847,1848,1013,1513,1514,1515,1516,1517,1518,1519,1520,
821,822,823,824,825,826,827,828,1061,1061,1061,1061,1061,1061,1061,1061,1061,1061,1061,1061,1061,1061,881,882,883,884,885,886,887,888,1061,1061,1061,1061,1061,1061,1061,1061,1061,1061,1061,1249,1250,1251,1252,1253,1254,1255,1256,1257,1258,1259,1260,1061,1061,1061,1061,1061,1061,1061,1165,1166,1167,1168,1061,1061,1061,1061,1061,1061,1061,1061,1061,1061,1061,1061,1061,1061,1061,929,930,931,932,933,934,935,936,1061,1061,1061,1061,1061,1061,1061,1061,1061,1061,1061,1061,1061,1061,1061,1061,1061,1061,1061,1061,1061,1061,1061,1249,1250,1251,1252,1253,1254,1255,1256,1257,1258,1259,1260,1061,1061,1061,1061,1061,1061,1061,1061,1061,1061,1061,1061,1061,1061,1073,1074,1075,1076,1077,1078,1079,1080,1061,1061,1061,1061,1061,1061,2153,2154,2155,2156,2157,2158,2159,2160,1061,1061,1061,1061,1061,1061,1061,1061,1061,1061,1061,1061,1061,1061,1061,1061,1061,1061,1061,1061,1061,1061,1061,1061,1061,1061,1061,1061,1061,1061,1061,1061,1061,1061,1061,1061,1393,1394,1395,1396,1397,1398,1399,1400,1401,1402,1403,1404,1025,1026,1027,1028,1029,1030,1031,1032,1600,1061,1061,1061,1061,1061,1061,1061,1061,1061,977,978,979,980,981,982,983,984,1061,1061,1061,1061,1061,1061,1061,1061,1061,1061,1061,1061,1061,1061,1061,1061,1061,1061,1061,1061,1061,1061,1061,1061,1061,1061,1061,1061,1061,1061,1061,1061,1061,1061,1061,1061,1061,1061,1061,1061,1061,1061,1061,1061,1061,1061,1061,1061,1061,1061,1061,1889,1890,1891,1892,1893,1894,1895,1896,1061,1177,1178,1179,1180,1181,1182,1183,1184,
869,870,871,872,873,874,875,876,965,965,965,965,965,965,965,965,965,965,965,965,965,965,929,930,931,932,933,934,935,936,965,965,965,965,965,965,965,965,965,965,965,1297,1298,1299,1300,1301,1302,1303,1304,1305,1306,1307,1308,965,965,965,965,965,965,965,1213,1214,1215,1216,965,965,965,965,965,965,965,965,965,965,965,965,965,965,965,977,978,979,980,981,982,983,984,965,965,965,965,965,965,965,965,965,965,965,965,965,965,965,965,965,965,965,965,965,965,965,1297,1298,1299,1300,1301,1302,1303,1304,1305,1306,1307,1308,965,965,965,965,965,965,965,965,965,965,965,965,965,965,1121,1122,1123,1124,1125,1126,1127,1128,965,965,965,965,965,965,2201,2202,2203,2204,2205,2206,2207,2208,965,965,965,965,965,965,965,965,965,965,965,965,965,965,965,965,965,965,965,965,965,965,965,965,965,965,965,965,965,965,965,965,965,965,965,965,1441,1442,1443,1444,1445,1446,1447,1448,1449,1450,1451,1452,1073,1074,1075,1076,1077,1078,1079,1080,1648,965,965,965,965,965,965,965,965,965,1025,1026,1027,1028,1029,1030,1031,1032,965,965,965,965,965,965,965,965,965,965,965,965,965,965,965,965,965,965,965,965,1357,1358,1359,1360,965,965,965,965,965,965,965,965,965,965,965,965,965,965,965,965,965,965,965,965,965,965,965,965,965,965,965,965,965,965,965,965,965,965,965,965,1225,1226,1227,1228,1229,1230,1231,1232,
917,918,919,920,921,922,923,924,1013,1013,1013,1013,1013,1013,1013,1013,1013,1013,1013,1013,1013,1013,977,978,979,980,981,982,983,984,1013,1013,1013,1013,1013,1013,1013,1013,1013,1013,1013,1013,1013,1013,1013,1013,1013,1013,1013,1013,1013,1013,1013,1013,1013,1013,1013,1013,1013,1013,1261,1262,1263,1264,1013,1013,1013,1013,1013,1013,1013,1013,1013,1013,1013,1013,1013,1013,1013,1025,1026,1027,1028,1029,1030,1031,1032,1013,1013,1013,1013,1013,1013,1013,1013,1013,1013,1013,1013,1013,1013,1013,1013,1013,1013,1013,1013,1013,1013,1013,1013,1013,1013,1013,1013,1013,1013,1013,1013,1013,1013,1013,1013,1013,1013,1013,1013,1013,1013,1013,1013,1013,1013,1013,1013,1013,1013,1013,1013,1013,1013,1013,1013,1013,1013,1013,1013,1013,1013,1013,2249,2250,2251,2252,2253,2254,2255,2256,1013,1013,1013,1013,1013,1013,1013,1013,1013,1013,1013,1013,1013,1013,1013,1013,1013,1013,1013,1013,1013,1013,1013,1013,1013,1013,1013,1013,1013,1013,1013,1013,1013,1013,1013,1013,1489,1490,1491,1492,1493,1494,1495,1496,1497,1498,1499,1500,1121,1122,1123,1124,1125,1126,1127,1128,1696,1013,1013,1013,1013,1013,1013,1013,1013,1013,1073,1074,1075,1076,1077,1078,1079,1080,1013,1013,1013,1013,1013,1013,1013,1013,1013,1013,1013,1013,1013,1013,1013,1013,1013,1013,1013,1013,1405,1406,1407,1408,1013,1013,1013,1013,1013,1013,1013,1013,1013,1013,1013,1013,1013,1013,1013,1013,1013,1013,1013,1013,1013,1013,1013,1013,1013,1013,1013,1013,1013,1013,1013,1013,1013,1013,1013,1013,1273,1274,1275,1276,1277,1278,1279,1280,
965,966,967,968,969,970,971,972,1061,1061,1061,1061,1061,1061,1061,1061,1061,1061,1061,1061,1061,1061,1025,1026,1027,1028,1029,1030,1031,1032,1061,1061,1061,1061,1061,1061,1061,1061,1061,1061,1061,1061,1061,1061,1061,1061,1061,1061,1061,1061,1061,1061,1061,1061,1061,1061,1061,1061,1061,1061,1309,1310,1311,1312,1061,1061,1061,1061,1061,1061,1061,1061,1061,1061,1061,1061,1061,1061,1061,1073,1074,1075,1076,1077,1078,1079,1080,1061,1061,1061,1061,1061,1061,1061,1061,1061,1061,1061,1061,1061,1061,1061,1061,1061,1061,1061,1061,1061,1061,1061,1061,1061,1061,1061,1061,1061,1061,1061,1061,1061,1061,1061,1061,1061,1061,1061,1061,1061,1061,1061,1061,1061,1061,1061,1061,1061,1061,1061,1061,1061,1061,1061,1061,1061,1061,1061,1061,1061,1061,1061,2297,2298,2299,2300,2301,2302,2303,2304,1061,1061,1061,1061,1061,1061,1061,1061,1061,1061,1061,1061,1061,1061,1061,1061,1061,1061,1061,1061,1061,1061,1061,1061,1061,1061,1061,1061,1061,1061,1061,1061,1061,1061,1061,1061,1061,1061,1061,1061,1061,1061,1061,1061,1061,1061,1061,1061,1121,1122,1123,1124,1125,1126,1127,1128,1744,1061,1061,1061,1061,1061,1061,1061,1061,1061,1121,1122,1123,1124,1125,1126,1127,1128,1061,1061,1061,1061,1061,1061,1061,1061,1061,1061,1061,1061,1061,1061,1061,1061,1061,1061,1061,1061,1453,1454,1455,1456,1061,1061,1061,1061,1061,1061,1061,1061,1061,1061,1061,1061,1061,1061,1061,1061,1061,1061,1061,1061,1061,1061,1061,1061,1061,1061,1061,1061,1061,1061,1061,1061,1061,1061,1061,1061,1321,1322,1323,1324,1325,1326,1327,1328,
1013,1014,1015,1016,1017,1018,1019,1020,965,965,965,965,965,965,965,965,965,965,965,965,965,965,1073,1074,1075,1076,1077,1078,1079,1080,965,965,965,965,965,965,965,965,965,965,965,965,965,965,965,965,965,965,965,965,965,965,965,965,965,965,965,965,965,965,965,965,965,965,965,965,965,965,965,965,965,965,965,965,965,965,965,965,965,1121,1122,1123,1124,1125,1126,1127,1128,965,965,965,965,1553,1554,1555,1556,1557,1558,1559,1560,965,965,965,965,965,965,965,965,965,965,965,965,965,965,965,965,965,965,965,965,965,965,965,965,965,965,965,965,965,965,965,965,965,965,965,965,965,965,965,965,965,965,965,965,965,965,965,965,965,965,965,965,965,965,965,965,965,965,965,965,965,965,965,965,965,965,965,965,965,965,965,965,965,965,965,965,965,965,965,965,965,965,965,965,965,965,965,965,965,965,965,965,965,965,965,965,965,965,965,965,965,965,965,965,965,965,965,1121,1122,1123,1124,1125,1126,1127,1128,1792,965,965,965,965,965,965,965,965,965,965,965,965,965,965,965,965,965,965,965,965,1961,1962,1963,1964,1965,1966,1967,1968,965,965,965,965,965,965,965,965,965,1501,1502,1503,1504,965,965,965,965,965,965,965,965,965,965,965,965,965,965,965,965,965,965,785,786,787,788,789,790,791,792,965,965,965,965,965,965,965,965,965,965,1369,1370,1371,1372,1373,1374,1375,1376,
1061,1062,1063,1064,1065,1066,1067,1068,1013,1013,1013,1013,1013,1013,1013,1013,1013,1013,1013,1013,1013,1013,1121,1122,1123,1124,1125,1126,1127,1128,1013,1013,1013,1013,1013,1013,1013,1013,1013,1013,1013,1013,1013,1013,1013,1013,1013,1013,1013,1013,1013,1013,1013,1013,1013,1013,1013,1013,1013,1013,1013,1013,1013,1013,1013,1013,1013,1013,1013,1013,1013,1013,1013,1013,1013,1013,1013,1013,1013,1013,1013,1013,1013,1013,1013,1013,1013,1013,1013,1013,1013,1601,1602,1603,1604,1605,1606,1607,1608,1013,1013,1013,1013,1013,1013,1013,1013,1013,1013,1013,1013,1013,1013,1013,1013,1013,1013,1013,1013,1013,1013,1013,1013,1013,1013,1013,1013,1013,1013,1013,1013,1013,1013,1013,1013,1013,1013,1013,1013,1013,1013,1013,1013,1013,1013,1013,1013,1013,1013,1013,1013,1013,1013,1013,1013,1013,1013,1013,1013,1013,1013,1013,1013,1013,1013,1013,1013,1013,1013,1013,1013,1013,1013,1013,1013,1013,1013,1013,1013,1013,1013,1013,1013,1013,1013,1013,1013,1013,1013,1013,1013,1013,1013,1013,1013,1013,1013,1013,1013,1013,1013,1013,1013,1013,1013,1013,1121,1122,1123,1124,1125,1126,1127,1128,1840,1013,1013,1013,1013,1013,1013,1013,1013,1013,1013,1013,1013,1013,1013,1013,1013,1013,1013,1013,1013,2009,2010,2011,2012,2013,2014,2015,2016,1013,1013,1013,1013,1013,1013,1013,1013,1013,1013,1013,1013,1013,1013,1013,1013,1013,1013,1013,1013,1013,1013,1013,1013,1013,1013,1013,1013,1013,1013,1013,833,834,835,836,837,838,839,840,1013,1013,1013,1013,1013,1013,1013,1013,1013,1013,1417,1418,1419,1420,1421,1422,1423,1424,
1109,1110,1111,1112,1113,1114,1115,1116,1061,1061,1061,1061,1061,1061,1061,1061,1061,1061,1061,1061,1061,1061,1061,1061,1061,1061,1061,1061,1061,1061,1061,1061,1061,1061,1061,1061,1061,1061,1061,1061,1061,1061,1061,1061,1061,1061,1061,1061,1061,1061,1061,1061,1061,1061,1061,1061,1061,1061,1061,1061,1061,1061,1061,1061,1061,1061,1061,1061,1061,1061,1061,1061,1061,1061,1061,1061,1061,1061,1061,1061,1061,1061,1061,1061,1061,1061,1061,1061,1061,1061,1061,1649,1650,1651,1652,1653,1654,1655,1656,1061,1061,1061,1061,1061,1061,1061,1061,1061,1061,1061,1061,1061,1061,1061,1061,1061,1061,1061,1061,1061,1061,1061,1061,1061,1061,1061,1061,1061,1061,1061,1061,1061,1061,1061,1061,1061,1061,1061,1061,1061,1061,1061,1061,1061,1061,1061,1061,1061,1061,1061,1061,1061,1061,1061,1061,1061,1061,1061,1061,1061,1061,1061,1061,1061,1061,1061,1061,1061,1061,1061,1061,1061,1061,1061,1061,1061,1061,1061,1061,1061,1061,1061,1061,1061,1061,1061,1061,1061,1061,1061,1061,1061,1061,1061,1061,1061,1061,1061,1061,1061,1061,1061,1061,1061,1061,1061,1121,1122,1123,1124,1125,1126,1127,1128,1888,1061,1061,1061,1061,1061,1061,1061,1061,1061,1061,1061,1061,1061,1061,1061,1061,1061,1061,1061,1061,2057,2058,2059,2060,2061,2062,2063,2064,1061,1061,1061,1061,1061,1061,1061,1061,1061,1061,1061,1061,1061,1061,1061,1061,1061,1061,1061,1061,1061,1061,1061,1061,1061,1061,1061,1061,1061,1061,1061,881,882,883,884,885,886,887,888,1061,1061,1061,1061,1061,1061,1061,1061,1061,1061,1465,1466,1467,1468,1469,1470,1471,1472,
1157,1158,1159,1160,1161,1162,1163,1164,965,965,965,965,965,965,965,965,965,965,965,965,965,965,965,965,965,965,965,965,965,965,965,965,965,965,965,965,965,965,965,965,965,1193,1194,1195,1196,1197,1198,1199,1200,965,965,965,965,965,965,965,965,965,965,965,965,965,965,965,965,965,965,965,965,965,965,965,965,965,965,965,965,965,965,965,965,965,965,965,965,965,965,965,965,965,965,1697,1698,1699,1700,1701,1702,1703,1704,965,965,965,965,965,965,965,965,965,965,965,965,965,965,965,965,965,965,965,965,965,965,965,965,965,965,965,965,965,965,965,965,965,965,965,769,770,771,772,773,774,775,776,777,778,779,780,965,965,965,965,965,965,965,965,965,965,965,965,965,965,965,965,965,965,965,965,965,1537,1538,1539,1540,1541,1542,1543,1544,1545,1546,1547,1548,965,965,965,965,965,965,965,965,965,965,965,965,965,965,965,965,965,965,965,965,965,965,965,965,965,965,965,1121,1122,1123,1124,1125,1126,1127,1128,1936,965,965,965,965,965,965,965,965,965,965,965,965,965,965,965,965,965,965,965,965,2105,2106,2107,2108,2109,2110,2111,2112,965,965,965,965,965,965,965,965,965,965,965,965,965,965,965,965,965,965,965,965,965,965,965,965,965,965,965,965,965,965,965,929,930,931,932,933,934,935,936,965,965,965,965,965,965,965,965,965,965,1513,1514,1515,1516,1517,1518,1519,1520,
1205,1206,1207,1208,1209,1210,1211,1212,1013,1013,1013,1013,1013,1013,1013,1013,1013,1013,1013,1013,1013,1013,1013,1013,1013,1013,1013,1013,1013,1013,1013,1013,1013,1013,1013,1013,1013,1013,1013,1013,1013,1241,1242,1243,1244,1245,1246,1247,1248,1013,1013,1013,1013,1013,1013,1013,1013,1013,1013,1013,785,786,787,788,789,790,791,792,1013,1013,1013,1013,1013,1013,1013,1013,1013,1013,1013,1013,1013,1013,1013,1013,1013,1013,1013,1013,1013,1013,1013,1745,1746,1747,1748,1749,1750,1751,1752,1013,1013,1013,1013,1013,1013,1013,1013,1013,1013,1013,1013,1013,1013,1013,1013,1013,1013,1013,1013,1013,1013,1013,1013,1013,1013,1013,1013,1013,1013,1013,1013,1013,1013,1013,817,818,819,820,821,822,823,824,825,826,827,828,1013,1013,1013,1013,1013,1013,1013,1013,1013,1013,1013,1013,1013,1013,1013,1013,1013,1013,1013,1013,1013,1585,1586,1587,1588,1589,1590,1591,1592,1593,1594,1595,1596,1013,1013,1013,1013,1013,1013,1013,1013,1013,1013,1013,1013,1013,1013,1013,1013,1013,1013,1013,1013,1013,1013,1013,1013,1013,1013,1013,1121,1122,1123,1124,1125,1126,1127,1128,1984,1013,1013,1013,1013,1013,1013,1013,1013,1013,1013,1013,1013,1013,1013,1013,1013,1013,1013,1013,1013,2153,2154,2155,2156,2157,2158,2159,2160,1013,1013,1013,1013,1013,1013,1013,1013,1013,1013,1013,1013,1013,1013,1013,1013,1013,1013,1013,1013,1013,1013,1013,1013,1013,1013,1013,1013,1013,1013,1013,977,978,979,980,981,982,983,984,1013,1013,1013,1013,1013,1013,1013,1013,1013,1013,1177,1178,1179,1180,1181,1182,1183,1184,
1253,1254,1255,1256,1257,1258,1259,1260,1061,1061,1061,1061,1061,1061,1061,1061,1061,1061,1061,1061,1061,1061,1061,1061,1061,1061,1061,1061,1061,1061,1061,1061,1061,1061,1061,1061,1061,1061,1061,1061,1061,1289,1290,1291,1292,1293,1294,1295,1296,1061,1061,1061,1061,1061,1061,1061,1061,1061,1061,1061,833,834,835,836,837,838,839,840,1061,1061,1061,1061,1061,1061,1061,1061,1061,1061,1061,1061,1061,1061,1061,1061,1061,1061,1061,1061,1061,1061,1061,1793,1794,1795,1796,1797,1798,1799,1800,1061,1061,1061,1061,1061,1061,1061,1061,1061,1061,1061,1061,1061,1061,1061,1061,1061,1061,1061,1061,1061,1061,1061,1061,1061,1061,1061,1061,1061,1061,1061,1061,1061,1061,1061,865,866,867,868,869,870,871,872,873,874,875,876,1061,1061,1061,1061,1061,1061,1061,1061,1061,1061,1061,1061,1061,1061,1061,1061,1061,1061,1061,1061,1061,1633,1634,1635,1636,1637,1638,1639,1640,1641,1642,1643,1644,1061,1061,1061,1061,1061,1061,1061,1061,1061,1061,1061,1061,1061,1061,1061,1061,1061,1061,1061,1061,1061,1061,1061,1061,1061,1061,1061,1121,1122,1123,1124,1125,1126,1127,1128,2032,1061,1061,1061,1061,1061,1061,1061,1061,1061,1061,1061,1061,1061,1061,1061,1061,1061,1061,1061,1061,2201,2202,2203,2204,2205,2206,2207,2208,1061,1061,1061,1061,1061,1061,1061,1061,1061,1061,1061,1061,1061,1061,1061,1061,1061,1061,1061,1061,1061,1061,1061,1061,1061,1061,1061,1061,1061,1061,1061,1025,1026,1027,1028,1029,1030,1031,1032,1061,1061,1061,1061,1061,1061,1061,1061,1061,1061,1225,1226,1227,1228,1229,1230,1231,1232,
1301,1302,1303,1304,1305,1306,1307,1308,1109,1109,1109,1109,1109,1109,1109,1109,1109,1109,1109,1109,1109,1109,1109,1109,1109,1109,1109,1109,1109,1109,1109,1109,1109,1109,1109,1109,1109,1109,1109,1109,1109,1337,1338,1339,1340,1341,1342,1343,1344,1109,1109,1109,1109,1109,1109,1109,1109,1109,1109,1109,881,882,883,884,885,886,887,888,1109,1109,1109,1109,1109,1109,1109,1109,1109,1109,1109,1109,1109,1109,1109,1109,1109,1109,1109,1109,1109,1109,1109,1841,1842,1843,1844,1845,1846,1847,1848,1109,1109,1109,1109,1109,1109,1109,1109,1109,1109,1109,1109,1109,1109,1109,1109,1109,1109,1109,1109,1109,1109,1109,1109,1109,1109,1109,1109,1109,1109,1109,1109,1109,1109,1109,913,914,915,916,917,918,919,920,921,922,923,924,1109,1109,1109,1109,1109,1109,1109,1109,1109,1109,1109,1109,1109,1109,1109,1109,1109,1109,1109,1109,1109,1681,1682,1683,1684,1685,1686,1687,1688,1689,1690,1691,1692,1109,1109,1109,1109,1109,1109,1109,1109,1109,1109,1109,1109,1109,1109,1109,1109,1109,1109,1109,1109,1109,1109,1109,1109,1109,1109,1109,1121,1122,1123,1124,1125,1126,1127,1128,2080,1109,1109,1109,1109,1109,1109,1109,1109,1109,1109,1109,1109,1109,1109,1109,1109,1109,1109,1109,1109,2249,2250,2251,2252,2253,2254,2255,2256,1109,1109,1109,1109,1109,1109,1109,1109,1109,1109,1109,1109,1109,1109,1109,1109,1109,1109,1109,1109,1109,1109,1109,1109,1109,1109,1109,1109,1109,1109,1109,1073,1074,1075,1076,1077,1078,1079,1080,1109,1109,1109,1109,1109,1109,1109,1109,1109,1109,1273,1274,1275,1276,1277,1278,1279,1280,
965,965,965,965,965,965,965,965,965,965,965,965,965,965,965,965,965,965,965,965,965,965,965,965,965,965,965,965,965,965,965,965,965,965,965,965,965,965,965,965,965,1385,1386,1387,1388,1389,1390,1391,1392,965,965,965,965,965,965,965,965,965,965,965,929,930,931,932,933,934,935,936,965,965,965,965,965,769,770,771,772,773,774,775,776,777,778,779,780,965,965,965,965,965,965,1889,1890,1891,1892,1893,1894,1895,1896,965,965,965,965,965,965,965,965,965,965,965,965,965,965,965,965,965,965,965,965,965,965,965,965,965,965,965,965,965,965,965,965,965,965,965,961,962,963,964,965,966,967,968,969,970,971,972,965,965,965,965,965,965,785,786,787,788,789,790,791,792,965,965,965,965,965,965,965,1729,1730,1731,1732,1733,1734,1735,1736,1737,1738,1739,1740,965,965,965,965,965,965,965,965,965,965,965,965,965,965,965,965,965,965,965,965,965,965,965,965,965,965,965,1121,1122,1123,1124,1125,1126,1127,1128,965,965,965,965,965,965,965,965,965,965,965,965,965,965,965,965,965,965,965,965,965,2297,2298,2299,2300,2301,2302,2303,2304,965,965,965,965,965,965,965,965,965,965,965,965,965,965,965,965,965,965,965,965,965,965,965,965,965,965,965,965,965,965,965,1121,1122,1123,1124,1125,1126,1127,1128,965,965,965,965,965,965,965,965,965,965,1321,1322,1323,1324,1325,1326,1327,1328,
1013,1013,1013,1013,1013,1013,1013,1013,1013,1013,1013,1013,1013,1013,1013,1013,1013,1013,1013,1013,1013,1013,1013,1013,1013,1013,1013,1013,1013,1013,1013,1013,1013,1013,1013,1013,1013,1013,1013,1013,1013,1433,1434,1435,1436,1437,1438,1439,1440,1013,1013,1013,1013,1013,1013,1013,1013,1013,1013,1013,977,978,979,980,981,982,983,984,1013,1013,1013,1013,1013,817,818,819,820,821,822,823,824,825,826,827,828,1013,1013,1013,1013,1013,1013,1013,1013,1013,1013,1013,1013,1013,1013,1013,1013,1013,1013,1013,1013,1013,1013,1013,1013,1013,1013,1013,1013,1013,1013,1013,1013,1013,1013,1013,1013,1013,1013,1013,1013,1013,1013,1013,1013,1013,1013,1013,1013,1013,1009,1010,1011,1012,1013,1014,1015,1016,1017,1018,1019,1020,1013,1013,1013,1013,1013,1013,833,834,835,836,837,838,839,840,1013,1013,1013,1013,1013,1013,1013,1777,1778,1779,1780,1781,1782,1783,1784,1785,1786,1787,1788,1013,1013,1013,1013,1013,1013,1013,1013,1013,1013,1013,1013,1013,1013,1013,1013,1013,1013,1013,1013,1013,1013,1013,1013,1013,1013,1013,1121,1122,1123,1124,1125,1126,1127,1128,1013,1013,1013,1013,1013,1013,1013,1013,1013,1013,1013,1013,1013,1013,1013,1013,1013,1013,1013,1013,1013,1013,1013,1013,1013,1013,1013,1013,1013,1013,1013,1013,1013,1013,1013,1013,1013,1013,1013,1013,1013,1013,1013,1013,1013,1013,1013,1013,1013,1013,1013,1013,1013,1013,1013,1013,1013,1013,1013,1013,1013,1013,1013,1013,1013,1013,1013,1013,1013,1013,1013,1013,1013,1013,1013,1013,1013,1013,1369,1370,1371,1372,1373,1374,1375,1376,
1061,1061,1061,1061,1061,1061,1061,1061,1061,1061,1061,1061,1061,1061,1061,1061,1061,1061,1061,1061,1061,1061,1061,1061,1061,1061,1061,1061,1061,1061,1061,1061,1061,1061,1061,1061,1061,1061,1061,1061,1061,1481,1482,1483,1484,1485,1486,1487,1488,1061,1061,1061,1061,1061,1061,1061,1061,1061,1061,1061,1025,1026,1027,1028,1029,1030,1031,1032,1061,1061,1061,1061,1061,865,866,867,868,869,870,871,872,873,874,875,876,1061,1061,1061,1061,1061,1061,1061,1061,1061,1061,1061,1061,1061,1061,1061,1061,1061,1061,1061,1061,1061,1061,1061,1061,1061,1061,1061,1061,1061,1061,1061,1061,1061,1061,1061,785,786,787,788,789,790,791,792,1061,1061,1061,1061,1061,1061,1057,1058,1059,1060,1061,1062,1063,1064,1065,1066,1067,1068,1061,1061,1061,1061,1061,1061,881,882,883,884,885,886,887,888,1061,1061,1061,1061,1061,1061,1061,1825,1826,1827,1828,1829,1830,1831,1832,1833,1834,1835,1836,1061,1061,1061,1061,1061,1061,1061,1061,1061,1061,1061,1061,1061,1061,1061,1061,1061,1061,1061,1061,1061,1061,1061,1061,1061,1061,1061,1121,1122,1123,1124,1125,1126,1127,1128,1061,1061,1061,1061,1061,1061,1061,1061,1061,1061,1061,1061,1061,1061,1061,1061,1061,1061,1061,1061,1061,1061,1061,1061,1061,1061,1061,1061,1061,1061,1061,1061,1061,1061,1061,1061,1345,1346,1347,1348,1349,1350,1351,1352,1353,1354,1355,1356,1061,1061,1061,1061,1061,1061,1061,1061,1061,1061,1061,1061,1061,1061,1061,1061,1061,1061,1061,1061,1061,1061,1061,1061,1061,1061,1061,1061,1061,1061,1417,1418,1419,1420,1421,1422,1423,1424,
1109,1109,1109,1109,1109,1109,1109,1109,1109,1109,1109,1109,1109,1109,1109,1109,1109,1109,1109,1109,1109,769,770,771,772,773,774,775,776,777,778,779,780,1109,1109,1109,1109,1109,1109,1109,1109,1529,1530,1531,1532,1533,1534,1535,1536,1109,1109,1109,1109,1109,1109,1109,1109,1109,1109,1109,1073,1074,1075,1076,1077,1078,1079,1080,1109,1109,1109,1109,1109,913,914,915,916,917,918,919,920,921,922,923,924,1109,1109,1109,1109,1109,1109,1109,1109,1109,1109,1109,1109,1109,1109,1109,1109,1357,1358,1359,1360,1109,1109,1109,1109,1109,1109,1109,1109,1109,1109,1109,1109,1109,1109,1109,833,834,835,836,837,838,839,840,1109,1109,1109,1109,1109,1109,1105,1106,1107,1108,1109,1110,1111,1112,1113,1114,1115,1116,1109,1109,1109,1109,1109,1109,929,930,931,932,933,934,935,936,1109,1109,1109,1109,1109,1109,1109,1873,1874,1875,1876,1877,1878,1879,1880,1881,1882,1883,1884,1109,1109,1109,1109,1109,1109,1109,1109,1109,1109,1109,1109,1109,1109,1109,1109,1109,1109,1109,1109,1109,1109,1109,1109,1109,1109,1109,1121,1122,1123,1124,1125,1126,1127,1128,1109,1109,1109,1109,1109,1109,1109,1109,1109,1109,1109,1109,1109,1109,1109,1109,1109,1109,1109,1109,1109,1109,1109,1109,1109,1109,1109,1109,1109,1109,1109,1109,1109,1109,1109,1109,1393,1394,1395,1396,1397,1398,1399,1400,1401,1402,1403,1404,1109,1109,1109,1109,1109,1109,1109,1109,1109,1109,1109,1109,1109,1109,1109,1109,1109,1109,1109,1109,1109,1109,1109,1109,1109,1109,1109,1109,1109,1109,1465,1466,1467,1468,1469,1470,1471,1472,
965,965,965,965,965,965,965,965,965,965,965,965,965,965,965,965,965,965,965,965,965,817,818,819,820,821,822,823,824,825,826,827,828,965,965,965,965,965,965,965,965,965,965,965,965,965,965,965,965,965,965,965,965,965,965,965,965,965,965,965,1121,1122,1123,1124,1125,1126,1127,1128,965,965,965,965,965,961,962,963,964,965,966,967,968,969,970,971,972,965,965,965,965,965,965,965,965,965,965,965,965,965,965,965,965,1405,1406,1407,1408,965,965,965,965,965,965,965,965,965,965,965,965,965,965,965,881,882,883,884,885,886,887,888,965,965,965,965,965,965,1153,1154,1155,1156,1157,1158,1159,1160,1161,1162,1163,1164,965,965,965,965,965,965,977,978,979,980,981,982,983,984,965,965,965,965,965,965,965,1921,1922,1923,1924,1925,1926,1927,1928,1929,1930,1931,1932,965,965,965,965,965,965,965,965,965,965,965,965,1537,1538,1539,1540,1541,1542,1543,1544,1545,1546,1547,1548,965,965,965,1121,1122,1123,1124,1125,1126,1127,1128,965,965,965,965,965,965,965,965,965,965,965,965,965,965,965,965,965,965,965,965,1357,1358,1359,1360,965,965,965,965,965,965,965,965,965,965,965,965,1441,1442,1443,1444,1445,1446,1447,1448,1449,1450,1451,1452,965,965,965,965,965,965,965,965,965,965,965,965,965,965,965,965,965,793,794,795,796,797,798,799,800,965,965,965,965,965,1513,1514,1515,1516,1517,1518,1519,1520,
1013,1013,1013,1013,1013,1013,1013,1013,1013,1013,1013,1013,1013,1013,1013,1013,1013,1013,1013,1013,1013,865,866,867,868,869,870,871,872,873,874,875,876,1013,1013,1013,1013,1013,1013,1013,1013,1013,1013,1013,1013,1013,1013,1013,1013,1013,1013,1013,1013,1013,1013,1013,1013,1013,1013,1013,1013,1013,1013,1013,1013,1013,1013,1013,1013,1013,1013,1013,1013,1009,1010,1011,1012,1013,1014,1015,1016,1017,1018,1019,1020,1013,1013,1013,1013,1013,1013,1013,1013,1013,1013,1013,1013,1013,1013,1013,1013,1453,1454,1455,1456,1013,1013,1013,1013,1013,1013,1013,1013,1013,1013,1013,1013,1013,1013,1013,929,930,931,932,933,934,935,936,1013,1013,1013,1013,1013,1013,961,962,963,964,965,966,967,968,969,970,971,972,1013,1013,1013,1013,1013,1013,1025,1026,1027,1028,1029,1030,1031,1032,1013,1013,1013,1013,1013,1013,1013,1969,1970,1971,1972,1973,1974,1975,1976,1977,1978,1979,1980,1013,1013,1013,1013,1013,1013,1013,1013,1013,1013,1013,1013,1585,1586,1587,1588,1589,1590,1591,1592,1593,1594,1595,1596,1013,1013,1013,1121,1122,1123,1124,1125,1126,1127,1128,1013,1013,1013,1013,1013,1013,1013,1013,1013,1013,1013,1013,1013,1013,1013,1013,1013,1013,1013,1013,1405,1406,1407,1408,1013,1013,1013,1013,1013,1013,1013,1013,1013,1013,1013,1013,1489,1490,1491,1492,1493,1494,1495,1496,1497,1498,1499,1500,1013,1013,1013,1013,1013,1013,1013,1013,1013,1013,1013,1013,1013,1013,1013,1013,1013,841,842,843,844,845,846,847,848,1013,1013,1013,1013,1013,1177,1178,1179,1180,1181,1182,1183,1184,
1061,1061,1061,1061,1061,1061,1061,1061,1061,1061,1061,1061,1061,1061,1061,1061,1061,1061,1061,1061,1061,913,914,915,916,917,918,919,920,921,922,923,924,1061,1061,1061,1061,1061,1061,1061,1061,1061,1061,1061,1061,1061,1061,1061,1061,1061,1061,1061,1061,1061,1061,1061,1061,1061,1061,1061,1061,1061,1061,1061,1061,1061,1061,1061,1061,1061,1061,1061,1061,1057,1058,1059,1060,1061,1062,1063,1064,1065,1066,1067,1068,1061,1061,1061,1061,1061,1061,1061,1061,1061,1061,1061,1061,1061,1061,1061,1061,1501,1502,1503,1504,1061,1061,1061,1061,1061,1061,1061,1061,1061,1061,1061,1061,1061,1061,1061,977,978,979,980,981,982,983,984,1061,1061,1061,1061,1061,1061,1009,1010,1011,1012,1013,1014,1015,1016,1017,1018,1019,1020,1061,1061,1061,1061,1061,1061,1073,1074,1075,1076,1077,1078,1079,1080,1061,1061,1061,1061,1061,1061,1061,2017,2018,2019,2020,2021,2022,2023,2024,2025,2026,2027,2028,1061,1061,1061,1061,1061,1061,1061,1061,1061,1061,1061,1061,1633,1634,1635,1636,1637,1638,1639,1640,1641,1642,1643,1644,1061,1061,1061,1121,1122,1123,1124,1125,1126,1127,1128,1061,1061,1061,1061,1061,1061,1061,1061,1061,1061,1061,1061,1061,1061,1061,1061,1061,1061,1061,1061,1453,1454,1455,1456,1061,1061,1061,1061,1061,1061,1061,1061,1061,1061,1061,1061,1061,1061,1061,1061,1061,1061,1061,1061,1061,1061,1061,1061,1061,1061,1061,1061,1061,1061,1061,1061,1061,1061,1061,1061,1061,1061,1061,1061,1061,889,890,891,892,893,894,895,896,1061,1061,1061,1061,1061,1225,1226,1227,1228,1229,1230,1231,1232,
1109,1109,1109,1109,1109,1109,1109,1109,1109,1109,1109,1109,1109,1109,1109,1109,1109,1109,1109,1109,1109,961,962,963,964,965,966,967,968,969,970,971,972,1109,1109,1109,1109,1109,1109,1109,1109,1109,1109,1109,1109,1109,1109,1109,1109,1109,1109,1109,1109,1109,1109,1109,1109,1109,1109,1109,1109,1109,1109,1109,1109,1109,1109,1109,1109,1109,1109,1109,1109,1105,1106,1107,1108,1109,1110,1111,1112,1113,1114,1115,1116,1109,1109,1109,1109,1109,1109,1109,1109,1109,1109,1109,1109,1109,1109,1109,1109,1109,1109,1109,1109,1109,1109,1109,1109,1109,1109,1109,1109,1109,1109,1109,1109,1109,1109,1109,1025,1026,1027,1028,1029,1030,1031,1032,1109,1109,1109,1109,1109,1109,1057,1058,1059,1060,1061,1062,1063,1064,1065,1066,1067,1068,1109,1109,1109,1109,1109,1109,1121,1122,1123,1124,1125,1126,1127,1128,1109,1109,1109,1109,1109,1109,1109,2065,2066,2067,2068,2069,2070,2071,2072,2073,2074,2075,2076,1109,1109,1109,1109,1109,1109,1109,1109,1109,1109,1109,1109,1681,1682,1683,1684,1685,1686,1687,1688,1689,1690,1691,1692,1109,1109,1109,1121,1122,1123,1124,1125,1126,1127,1128,1962,1963,1964,1965,1966,1967,1968,1109,1109,1109,1109,1109,1109,1109,1109,1109,1109,1109,1109,1109,1501,1502,1503,1504,1109,1109,1109,1109,1109,1109,1109,1109,1109,1109,1109,1109,1109,1109,1109,1109,1109,1109,1109,1109,1109,1109,1109,1109,1109,1109,1109,1109,1109,1109,1109,1109,1109,1109,1109,1109,1109,1109,1109,1109,1109,937,938,939,940,941,942,943,944,1109,1109,1109,1109,1109,1273,1274,1275,1276,1277,1278,1279,1280,
965,965,965,965,965,965,965,965,965,965,965,965,965,965,965,965,965,965,965,965,965,1009,1010,1011,1012,1013,1014,1015,1016,1017,1018,1019,1020,965,965,965,965,965,965,965,965,965,965,965,965,965,965,965,965,965,1357,1358,1359,1360,965,965,965,965,965,965,965,965,965,965,965,965,965,965,965,965,965,965,965,1153,1154,1155,1156,1157,1158,1159,1160,1161,1162,1163,1164,965,965,965,965,965,965,965,965,965,965,965,965,965,965,965,965,965,965,965,965,965,965,965,965,965,965,965,965,965,965,965,965,965,965,965,1073,1074,1075,1076,1077,1078,1079,1080,965,965,965,965,965,965,1105,1106,1107,1108,1109,1110,1111,1112,1113,1114,1115,1116,965,965,965,965,965,965,965,965,965,965,965,965,965,965,965,965,965,965,965,965,965,965,965,965,965,965,965,965,965,965,965,965,965,965,965,965,965,965,965,965,965,965,965,965,965,1729,1730,1731,1732,1733,1734,1735,1736,1737,1738,1739,1740,965,965,965,965,965,965,965,965,965,965,2009,2010,2011,2012,2013,2014,2015,2016,965,965,965,965,965,965,965,965,965,965,965,965,965,965,965,965,965,965,965,965,965,965,965,965,965,965,965,965,965,965,965,965,965,965,965,965,965,965,965,965,965,965,965,965,965,965,965,965,965,965,965,965,965,965,965,965,965,965,985,986,987,988,989,990,991,992,965,965,965,965,965,1321,1322,1323,1324,1325,1326,1327,1328,
1013,1013,1013,1013,1013,1013,1013,1013,1013,1013,1013,1013,1013,1013,1013,1013,1013,1013,1013,1013,1013,1057,1058,1059,1060,1061,1062,1063,1064,1065,1066,1067,1068,1013,1013,1013,1013,1013,1013,1013,1013,1013,1013,1013,1013,1013,1013,1013,1013,1013,1405,1406,1407,1408,1013,1013,1013,1013,1013,1013,1013,1013,1013,1013,1013,1013,1013,1013,1013,1013,1013,1013,1013,1201,1202,1203,1204,1205,1206,1207,1208,1209,1210,1211,1212,1013,1013,1013,1013,1013,1013,1013,1013,1013,1013,1013,1013,1013,1013,1013,1013,1013,1013,1013,1013,1013,1013,1013,1013,1013,1013,1013,1013,1013,1013,1013,1013,1013,1013,1013,1121,1122,1123,1124,1125,1126,1127,1128,1013,1013,1013,1013,1013,1013,1153,1154,1155,1156,1157,1158,1159,1160,1161,1162,1163,1164,1013,1013,1013,1013,1013,1013,1013,1013,1013,1013,1013,1013,1013,1013,1013,1013,1013,1013,1013,1013,1013,1013,1013,1013,1013,1013,1013,1013,1013,1013,1013,1013,1013,1013,1013,1013,1013,1013,1013,1013,1013,1013,1013,1013,1013,1777,1778,1779,1780,1781,1782,1783,1784,1785,1786,1787,1788,1013,1013,1013,1013,1013,1013,1013,1013,1013,1013,2057,2058,2059,2060,2061,2062,2063,2064,1013,1013,1013,1013,1013,1013,1013,1013,1013,1013,1013,1013,1013,1013,1013,1013,1013,1013,1013,1013,1013,1013,1013,1013,1013,1013,1013,1013,1013,1013,1013,1013,1013,1013,1013,1013,1013,1013,1013,1013,1013,1013,1013,1013,1013,1013,1013,1013,1013,1013,1013,1013,1013,1013,1013,1013,1013,1013,1033,1034,1035,1036,1037,1038,1039,1040,1013,1013,1013,1013,1013,1369,1370,1371,1372,1373,1374,1375,1376,
1061,1061,1061,1061,1061,1061,1061,1061,1061,1061,1061,1061,1061,1061,1061,1061,1061,1061,1061,1061,1061,1105,1106,1107,1108,1109,1110,1111,1112,1113,1114,1115,1116,1061,1061,1061,1061,1061,1061,1061,1061,1061,1061,1061,1061,1061,1061,1061,1061,1061,1453,1454,1455,1456,1061,1061,1061,1061,1061,1061,1061,1061,1061,1061,1061,1061,1061,1061,1061,1061,1061,1061,1061,1249,1250,1251,1252,1253,1254,1255,1256,1257,1258,1259,1260,1061,1061,1061,1061,1061,1061,1061,1061,1061,1061,1061,1061,1061,1061,1061,1061,1061,1061,1061,1061,1061,1061,1061,1061,1061,1061,1061,1061,1061,1061,1061,1061,1061,1061,1061,1061,1061,1061,1061,1061,1061,1061,1061,1061,1061,1061,1061,1061,1061,961,962,963,964,965,966,967,968,969,970,971,972,1061,1061,1061,1061,1061,1061,1061,1061,1061,1061,1061,1061,1061,1061,1061,1061,1061,1061,1061,1061,1061,1061,1061,1061,1061,1061,1061,1061,1061,1061,1061,1061,1061,1061,1061,1061,1061,1061,1061,1061,1061,1061,1061,1061,1061,1825,1826,1827,1828,1829,1830,1831,1832,1833,1834,1835,1836,1061,1061,1061,1061,1061,1061,1061,1061,1061,1061,2105,2106,2107,2108,2109,2110,2111,2112,1061,1061,1061,1061,1061,1061,1061,1061,1061,1061,1061,1061,1061,1061,1061,1061,1061,1061,1061,1061,1061,1061,1061,1061,1061,1061,1061,1061,1061,1061,1061,1061,1061,1061,1061,1061,1061,1061,1061,1061,1061,1061,1061,1061,1061,1061,1061,1061,1061,1061,1061,1061,1061,1061,1061,1061,1061,1061,1081,1082,1083,1084,1085,1086,1087,1088,1061,1061,1061,1061,1061,1417,1418,1419,1420,1421,1422,1423,1424,
1109,1109,1109,1109,1109,1109,1109,1109,1109,1109,1109,1109,1109,1109,1109,1109,1109,1109,1109,1109,1109,1153,1154,1155,1156,1157,1158,1159,1160,1161,1162,1163,1164,1109,1109,1109,1109,1109,1109,1109,1109,1109,1109,1109,1109,1109,1109,1109,1109,1109,1501,1502,1503,1504,1109,1109,1109,1109,1109,1109,1109,1109,1109,1109,1109,1109,1109,1109,1109,1109,1109,1109,1109,1297,1298,1299,1300,1301,1302,1303,1304,1305,1306,1307,1308,1109,1109,1109,1109,1109,1109,1109,1109,1109,1109,1109,1109,1109,1109,1109,1109,1109,1109,1109,1109,1109,1109,1109,1109,1109,1109,1109,1109,1109,1109,1109,1109,1109,1109,1109,1109,1109,1109,1109,1109,1109,1109,1109,1109,1109,1109,1109,1109,1109,1009,1010,1011,1012,1013,1014,1015,1016,1017,1018,1019,1020,1109,1109,1109,1109,1109,1109,1109,1109,1109,1109,1109,1109,1109,1109,1109,1109,1109,1109,1109,1109,1109,1109,1109,1109,1109,1109,1109,1109,1109,1109,1109,1109,1109,1109,1109,1109,1109,1109,1109,1109,1109,1109,1109,1109,1109,1873,1874,1875,1876,1877,1878,1879,1880,1881,1882,1883,1884,1109,1109,1109,1109,1109,1109,1109,1109,1109,1109,2153,2154,2155,2156,2157,2158,2159,2160,1109,1109,1109,1109,1109,1109,1109,1109,1109,1109,1109,1109,1109,1109,1109,1109,1109,1109,1109,1109,1109,1109,1109,1109,1109,1109,1109,1109,1109,1109,1109,1109,1109,1109,1109,1109,1109,1109,1109,1109,1109,1109,1109,1109,1109,1109,1109,1109,1109,1109,1109,1109,1109,1109,1109,1109,1109,1109,1109,1109,1109,1109,1109,1109,1109,1109,1109,1109,1109,1109,1109,1465,1466,1467,1468,1469,1470,1471,1472,
965,965,965,965,965,965,965,965,965,965,965,965,965,965,965,965,965,965,965,965,965,1201,1202,1203,1204,1205,1206,1207,1208,1209,1210,1211,1212,965,965,965,965,965,965,965,965,965,965,965,965,965,965,965,965,965,965,965,965,965,965,965,965,965,965,965,965,965,965,965,965,965,965,965,965,965,965,965,965,965,965,965,965,965,965,965,965,965,965,965,965,965,965,965,965,965,965,965,965,965,965,965,965,965,965,965,965,965,965,965,965,965,965,965,965,965,965,965,965,965,965,965,965,965,965,965,965,965,965,965,965,965,965,965,965,965,965,965,965,965,1057,1058,1059,1060,1061,1062,1063,1064,1065,1066,1067,1068,965,965,965,965,965,965,965,965,965,965,965,965,965,965,965,965,965,965,965,965,965,965,965,965,965,965,965,965,965,965,965,965,965,965,965,965,965,965,965,965,965,965,965,965,965,1921,1922,1923,1924,1925,1926,1927,1928,1929,1930,1931,1932,965,965,965,965,965,965,965,965,965,965,2201,2202,2203,2204,2205,2206,2207,2208,965,965,965,965,965,965,965,965,965,965,965,965,965,965,965,965,965,965,965,965,965,965,965,965,965,965,965,965,965,965,965,965,965,965,965,965,965,965,965,965,965,965,965,965,965,965,965,965,965,965,1357,1358,1359,1360,965,965,965,965,965,965,965,965,965,965,965,965,965,965,965,965,965,1513,1514,1515,1516,1517,1518,1519,1520,
1013,1013,1013,1013,1013,1013,1013,1013,1013,1013,1013,1013,1013,1013,1013,1013,1013,1013,1013,1013,1013,1249,1250,1251,1252,1253,1254,1255,1256,1257,1258,1259,1260,1013,1013,1013,1013,1013,1013,1013,1013,1013,1013,1013,1013,1013,1013,1013,1013,1013,1013,1013,1013,1013,1013,1013,1013,1013,1013,1013,1013,1013,1013,1013,1013,1013,1013,1013,1013,1013,1013,1013,1013,1013,1013,1013,1013,1013,1013,1013,1013,1013,1013,1013,1013,1013,1013,1013,1013,1013,1013,1013,1013,1013,1013,1013,1013,1013,1013,1013,1013,1013,1013,1013,1013,1013,1013,1013,1013,1013,1013,1013,1013,1013,1013,1013,1013,1013,1013,1013,1013,1013,1013,1013,1013,1013,1013,1013,1013,1013,1013,1013,1013,1013,1105,1106,1107,1108,1109,1110,1111,1112,1113,1114,1115,1116,1013,1013,1013,1013,1013,1013,1013,1013,1013,1013,1013,1013,1013,1013,1013,1013,1013,1013,1013,1013,1013,1013,1013,1013,1013,1013,1013,1013,1013,1013,1013,1013,1013,1013,1013,1013,1013,1013,1013,1013,1013,1013,1013,1013,1013,1969,1970,1971,1972,1973,1974,1975,1976,1977,1978,1979,1980,1013,1013,1013,1013,1013,1013,1013,1013,1013,1013,2249,2250,2251,2252,2253,2254,2255,2256,1013,1013,1013,1013,1013,1013,1013,1013,1013,1013,1013,769,770,771,772,773,774,775,776,777,778,779,780,1013,1013,1013,1013,1013,1013,1013,1013,1013,1013,1013,1013,1013,1013,1013,1013,1013,1013,1013,1013,1013,1013,1013,1013,1013,1013,1013,1405,1406,1407,1408,1013,1013,1013,1013,1013,1013,1013,1013,1013,1013,1013,1013,1013,1013,1013,1013,1013,1177,1178,1179,1180,1181,1182,1183,1184,
1061,1061,1061,1061,1061,1061,1061,1061,1061,1061,1061,1061,1061,1061,1061,1061,1061,1061,1061,1061,1061,1297,1298,1299,1300,1301,1302,1303,1304,1305,1306,1307,1308,1061,1061,1061,1061,1061,1061,1061,1061,1061,1061,1061,1061,1061,1061,1061,1061,1061,1061,1061,1061,1061,1061,1061,1061,1061,1061,1061,1061,1061,1061,1061,1061,1061,1061,1061,1061,1061,1061,1061,1061,1061,1061,1061,1061,1061,1061,1061,1061,1061,1061,1061,1061,1061,1061,1061,1061,1061,1061,1061,1061,1061,1061,1061,1061,1061,1061,1061,1061,1061,1061,1061,1061,1061,1061,1061,1061,1061,1061,1061,1061,1061,1061,1061,1061,1061,1061,1061,1061,1061,1061,1061,1061,1061,1061,1061,1061,1061,1061,1061,1061,1061,1153,1154,1155,1156,1157,1158,1159,1160,1161,1162,1163,1164,1061,1061,1061,1061,1061,1061,1061,1061,1061,1061,1061,1061,1061,1061,1061,1061,1061,1061,1061,1061,1061,1061,1061,1061,1061,1061,1061,1061,1061,1061,1061,1061,1061,1061,1061,1061,1061,1061,1061,1061,1061,1061,1061,1061,1061,2017,2018,2019,2020,2021,2022,2023,2024,2025,2026,2027,2028,1061,1061,1061,1061,1061,1061,1061,1061,1061,1061,2297,2298,2299,2300,2301,2302,2303,2304,1061,1061,1061,1061,1061,1061,1061,1061,1061,1061,1061,817,818,819,820,821,822,823,824,825,826,827,828,1061,1061,1061,1061,1061,1061,1061,1061,1061,1061,1061,1061,1061,1061,1061,1061,1061,1061,1061,1061,1061,1061,1061,1061,1061,1061,1061,1453,1454,1455,1456,1061,1061,1061,1061,1061,1061,1061,1061,1061,1061,1061,1061,1061,1061,1061,1061,1061,1225,1226,1227,1228,1229,1230,1231,1232,
1109,1109,1109,1109,1109,1109,1109,1109,1109,1109,1109,1109,1109,1109,1109,1109,1109,1109,1109,1109,1109,1109,1109,1109,1109,1109,1109,1109,1109,1109,1109,1109,1109,1109,1109,1109,1109,1109,1109,1109,1109,1109,1109,1109,1109,1109,1109,1109,1109,1109,1109,1109,1109,1109,1109,1109,1109,1109,1109,1109,1109,1109,1109,1109,1109,1109,1109,1109,1109,1109,1109,1109,1109,1109,1109,1109,1109,1109,1109,1109,1109,1109,1109,1109,1109,1109,1109,1109,1109,1109,1109,1109,1109,1109,1109,1109,1109,1109,1109,1109,1109,1109,1109,1109,1109,1109,1109,1109,1109,1109,1109,1109,1109,1109,1109,1109,1109,1109,1109,1109,1109,1109,1109,1109,1109,1109,1109,1109,1109,1109,1109,1109,1109,1109,961,962,963,964,965,966,967,968,969,970,971,972,1109,1109,1109,1109,1109,1109,1109,1109,1109,1109,1109,1109,1109,1109,1109,1109,1109,1109,1109,1109,1109,1109,1109,1109,1109,1109,1109,1109,1109,1109,1109,1109,1109,1109,1109,1109,1109,1109,1109,1109,1109,1109,1109,1109,1109,2065,2066,2067,2068,2069,2070,2071,2072,2073,2074,2075,2076,1109,1109,1109,1109,1109,1109,1109,1109,1109,1109,1109,1109,1109,1109,1109,1109,1109,1109,1109,1109,1109,1109,1109,1109,1109,1109,1109,1109,1109,865,866,867,868,869,870,871,872,873,874,875,876,1109,1109,1109,1109,1109,1109,1109,1109,1109,1109,1109,1109,1109,1109,1109,1109,1109,1109,1109,1109,1109,1109,1109,1109,1109,1109,1109,1501,1502,1503,1504,1109,1109,1109,1109,1109,1109,1109,1109,1109,1109,1109,1109,1109,1109,1109,1109,1109,1273,1274,1275,1276,1277,1278,1279,1280,
965,965,965,965,965,965,965,965,965,965,965,965,965,965,965,965,965,965,965,965,965,965,965,965,965,965,965,965,965,965,965,965,965,965,965,965,965,965,965,965,965,965,965,965,965,965,965,965,965,965,965,965,965,965,965,965,965,965,965,965,965,965,965,965,965,965,965,965,965,965,965,965,965,965,965,965,965,965,781,782,783,784,965,965,965,965,965,965,965,965,965,965,965,965,965,965,965,965,965,965,965,965,965,965,965,965,965,965,965,965,965,965,965,965,965,965,965,965,965,965,965,965,965,965,965,965,965,965,965,965,965,965,965,965,1009,1010,1011,1012,1013,1014,1015,1016,1017,1018,1019,1020,965,965,965,965,965,965,965,965,965,965,965,965,965,965,965,965,965,965,965,965,965,965,965,965,965,965,965,965,965,965,965,965,965,965,965,965,965,965,965,965,965,965,965,965,965,965,965,965,965,965,965,965,965,965,965,965,965,965,965,965,965,965,965,965,965,965,965,965,965,965,965,965,965,965,965,965,965,965,965,965,965,965,965,965,965,965,913,914,915,916,917,918,919,920,921,922,923,924,965,965,965,965,965,965,965,965,965,965,965,965,965,965,965,965,965,965,965,965,965,965,965,965,965,965,965,965,965,965,965,965,965,965,965,965,965,965,965,965,965,965,965,965,965,965,965,965,1321,1322,1323,1324,1325,1326,1327,1328,
1013,1013,1013,1013,1013,1013,1013,1013,1013,1013,1013,1013,1013,1013,1013,1013,1013,1013,1013,1013,1013,1013,1013,1013,1013,1013,1013,1013,1013,1013,1013,1013,1013,1013,1013,1013,1013,1013,1013,1013,1013,1013,1013,1013,1013,1013,1013,1013,1013,1013,1013,1013,1013,1013,1013,1013,1013,1013,1013,1013,1013,1013,1013,1013,1013,1013,1013,1013,1013,1013,1013,1013,1013,1013,1013,1013,1013,1013,829,830,831,832,1013,1013,1013,1013,1013,1013,1013,1013,1013,1013,1013,1013,1013,1013,1013,1013,1013,1013,1013,1013,1013,1013,1013,1013,1013,1013,1013,1013,1013,1013,1013,1013,1013,1013,1013,1013,1013,1013,1013,1013,1013,1013,1013,1013,1013,1013,1013,1013,1013,1013,1013,1013,1057,1058,1059,1060,1061,1062,1063,1064,1065,1066,1067,1068,1013,1013,1013,1013,1013,1013,1013,1013,1013,1013,1013,1013,1013,1013,1013,1013,1013,1013,1013,1013,1013,1013,1013,1013,1013,1345,1346,1347,1348,1349,1350,1351,1352,1353,1354,1355,1356,1013,1013,1013,1013,1013,1013,1013,1013,1013,1013,1013,1013,1013,1013,1013,1013,1013,1013,1013,1013,1013,1013,1013,1013,1013,1013,1013,1013,1013,1013,1013,1013,1013,1013,1013,1013,1013,1013,1013,1013,1013,1013,1013,1013,1013,1013,1013,1013,1013,961,962,963,964,965,966,967,968,969,970,971,972,1013,1013,1013,1013,1013,1013,1013,1013,1013,1013,1013,1013,1013,1013,1013,1013,1013,1013,1013,1013,1013,1013,1013,1013,1013,1013,1013,1013,1013,1013,1013,1013,1013,1013,1013,1013,1013,1013,1013,1013,1013,1013,1013,1013,1013,1013,1013,1013,1369,1370,1371,1372,1373,1374,1375,1376,
1061,1061,1061,1061,1061,1061,1061,1061,1061,1061,1061,1061,1061,1061,1061,1061,1061,1061,1061,1061,1061,1061,1061,1061,1061,1061,1061,1061,1061,1061,1061,1061,1061,1061,1061,1061,1061,1061,1061,1061,1061,1061,1061,1061,1061,1061,1061,1061,1061,1061,1061,1061,1061,1061,1061,1061,1061,1061,1061,1061,1061,1061,1061,1061,1061,1061,1061,1061,1061,1061,1061,1061,1061,1061,1061,1061,1061,1061,877,878,879,880,1061,1061,1061,1061,1061,1061,1061,1061,1061,1061,1061,1061,1061,1061,1061,1061,1061,1061,1061,1061,1061,1061,1061,1061,1061,1061,1061,1061,1061,1061,1061,1061,1061,1061,1061,1061,1061,1061,1061,1061,1061,1061,1061,1061,1061,1061,1061,1061,1061,1061,1061,1061,1105,1106,1107,1108,1109,1110,1111,1112,1113,1114,1115,1116,1061,1061,1061,1061,1061,1061,1061,1061,1061,1061,1061,1061,1061,1061,1061,1061,1061,1061,1061,1061,1061,1061,1061,1061,1061,1393,1394,1395,1396,1397,1398,1399,1400,1401,1402,1403,1404,1061,1061,1061,1061,1061,1061,1061,1061,1061,1061,1061,1061,1061,1061,1061,1061,1061,1061,1061,1061,1061,1061,1061,1061,1061,1061,1061,1061,1061,1061,1061,1061,1061,1061,1061,1061,1061,1061,1061,1061,1061,1061,1061,1061,1061,1061,1061,1061,1061,1009,1010,1011,1012,1013,1014,1015,1016,1017,1018,1019,1020,1061,1061,1061,1061,1061,1061,1061,1061,1061,793,794,795,796,797,798,799,800,1061,1061,1061,1061,1061,1061,1061,1061,1061,1061,1061,1061,1061,1061,1061,1061,1061,1061,1193,1194,1195,1196,1197,1198,1199,1200,1061,1061,1061,1061,1061,1417,1418,1419,1420,1421,1422,1423,1424,
1109,1109,1109,1109,1109,1109,1109,1109,1109,1109,1109,1109,1109,1109,1109,1109,1109,1109,1109,1109,1109,1109,1109,1109,1109,1109,1109,1109,1109,1109,1109,1553,1554,1555,1556,1557,1558,1559,1560,1109,1109,1109,1109,1109,781,782,783,784,1109,1109,1109,1109,1109,1109,1109,1109,1109,1109,1109,1109,1109,1109,1109,1109,1109,1109,1109,1109,1109,1109,1109,1109,1109,1109,1109,1109,1109,1109,925,926,927,928,1109,1109,1109,1109,1109,785,786,787,788,789,790,791,792,1109,1109,1109,1109,1109,1109,1109,1109,1109,1109,1109,1109,1109,1109,1109,1109,1109,1109,1109,1109,1109,1109,1109,1109,1109,1109,1109,1109,1109,1109,781,782,783,784,1109,1109,1109,1109,1109,1153,1154,1155,1156,1157,1158,1159,1160,1161,1162,1163,1164,1109,1109,1109,1109,1109,1109,1109,1109,1109,1109,1109,1109,1109,1109,1109,1109,1109,1109,1109,1109,1109,1109,1109,1109,1109,1441,1442,1443,1444,1445,1446,1447,1448,1449,1450,1451,1452,1109,1109,1109,1109,1109,1109,1109,1109,1109,1109,1109,1109,1109,1109,1109,1109,1109,1109,1109,1109,785,786,787,788,789,790,791,792,1109,1109,1109,1109,1109,1109,1109,1109,1109,1109,1109,1109,1109,1109,1109,1109,1109,1109,1109,1109,1109,1057,1058,1059,1060,1061,1062,1063,1064,1065,1066,1067,1068,1109,1109,1109,1109,1109,1109,1109,1109,1109,841,842,843,844,845,846,847,848,1109,1109,1109,1109,1109,1109,1109,1109,1109,1109,1109,1109,1109,1109,1109,1109,1109,1109,1241,1242,1243,1244,1245,1246,1247,1248,1109,1109,1109,1109,1109,1465,1466,1467,1468,1469,1470,1471,1472,
965,965,965,965,965,965,965,965,965,965,965,965,965,965,965,965,965,965,965,965,965,965,965,965,965,965,965,965,965,965,965,1601,1602,1603,1604,1605,1606,1607,1608,965,965,965,965,965,829,830,831,832,965,965,965,965,965,965,965,965,965,965,965,965,965,965,965,785,786,787,788,789,790,791,792,965,965,965,965,965,965,965,973,974,975,976,965,965,965,965,965,833,834,835,836,837,838,839,840,965,965,965,965,965,965,965,965,965,965,965,965,965,965,965,965,965,965,965,965,965,965,965,965,965,965,965,965,965,965,829,830,831,832,965,965,965,965,965,961,962,963,964,965,966,967,968,969,970,971,972,965,965,965,965,965,965,965,965,965,965,965,965,965,965,965,965,965,965,965,965,965,965,965,965,965,1489,1490,1491,1492,1493,1494,1495,1496,1497,1498,1499,1500,965,965,965,965,965,965,965,965,965,965,965,965,965,965,965,965,965,965,965,965,833,834,835,836,837,838,839,840,965,965,965,965,965,965,965,965,965,965,965,965,965,965,965,965,965,965,965,965,965,1105,1106,1107,1108,1109,1110,1111,1112,1113,1114,1115,1116,965,965,965,965,965,965,965,965,965,889,890,891,892,893,894,895,896,965,965,965,965,965,965,965,965,965,965,965,965,965,965,965,965,965,965,1289,1290,1291,1292,1293,1294,1295,1296,965,965,965,965,965,1513,1514,1515,1516,1517,1518,1519,1520,
1013,1013,1013,1013,1013,1013,1013,1013,785,786,787,788,789,790,791,792,1013,1013,1013,1013,1013,1013,1013,1013,1013,1013,1013,1013,1013,1013,1013,1649,1650,1651,1652,1653,1654,1655,1656,1013,1013,1013,1013,1013,877,878,879,880,1013,1013,1013,1013,1013,1013,1013,1013,1013,1013,1013,1013,1013,1013,1013,833,834,835,836,837,838,839,840,1013,1013,1013,1013,1013,1013,1013,1021,1022,1023,1024,1013,1013,1013,1013,1013,881,882,883,884,885,886,887,888,1013,1013,1013,1013,1013,1013,1013,1013,1013,1013,1013,1013,1013,769,770,771,772,773,774,775,776,777,778,779,780,1013,1013,1013,1013,1013,877,878,879,880,1013,1013,1013,1013,1013,1009,1010,1011,1012,1013,1014,1015,1016,1017,1018,1019,1020,1013,1013,1013,1013,1013,1013,1013,1013,1013,1013,1013,1013,1013,1013,1013,1013,1013,1013,1013,1013,1013,1013,1013,1013,1013,1013,1013,1013,1013,1013,1013,1013,1013,1013,1013,1013,1013,1013,1013,1013,1013,1013,1013,1013,1013,1013,1013,1013,1013,1013,1013,1013,1013,1013,1013,1013,1013,881,882,883,884,885,886,887,888,1013,1013,1013,1013,1013,1013,1013,1013,1013,1013,1013,1013,1013,1013,1013,1013,1013,1013,1013,1013,1013,1153,1154,1155,1156,1157,1158,1159,1160,1161,1162,1163,1164,1013,1013,1013,1013,1013,1013,1013,1013,1013,937,938,939,940,941,942,943,944,1013,1013,1013,1013,1013,1013,1013,1013,1013,1013,1013,1013,1013,1013,1013,1013,1013,1013,1337,1338,1339,1340,1341,1342,1343,1344,1013,1013,1013,1013,1013,1177,1178,1179,1180,1181,1182,1183,1184,
1061,1061,1061,1061,1061,1061,1061,1061,833,834,835,836,837,838,839,840,1061,1061,1061,1061,1061,1061,1061,1061,1061,1061,1061,1061,1061,1061,1061,1697,1698,1699,1700,1701,1702,1703,1704,1061,1061,1061,1061,1061,925,926,927,928,1061,1061,1061,1061,1061,1061,1061,1061,1061,1061,1061,1061,1061,1061,1061,881,882,883,884,885,886,887,888,1061,1061,1061,1061,1061,1061,1061,1069,1070,1071,1072,1061,1061,1061,1061,1061,929,930,931,932,933,934,935,936,1061,1061,1061,1061,1061,1061,1061,1061,1061,1061,1061,1061,1061,817,818,819,820,821,822,823,824,825,826,827,828,1061,1061,1061,1061,1061,925,926,927,928,1061,1061,1061,1061,1061,1057,1058,1059,1060,1061,1062,1063,1064,1065,1066,1067,1068,1061,1061,1061,1061,1061,1061,1061,1061,1061,1549,1550,1551,1552,1061,1061,1061,1061,1061,1061,1061,1061,1061,1061,1061,1061,1061,1061,1061,1061,1061,1061,1061,1061,1061,1061,1061,1061,1061,1061,1061,1061,1061,1061,1061,1061,1061,1061,1061,1061,1061,1061,1061,1061,1061,1061,1061,1061,929,930,931,932,933,934,935,936,1061,1061,1061,1061,1061,1061,1061,1061,1061,1061,1061,1061,1061,1061,1061,1061,1061,1061,1061,1061,1061,1201,1202,1203,1204,1205,1206,1207,1208,1209,1210,1211,1212,1061,1061,1061,1061,1061,1061,1061,1061,1061,985,986,987,988,989,990,991,992,1061,1061,1061,1061,1061,1061,1061,1061,1061,1061,1061,1061,1061,1061,1061,1061,1061,1061,1385,1386,1387,1388,1389,1390,1391,1392,1061,1061,1061,1061,1061,1225,1226,1227,1228,1229,1230,1231,1232,
1109,1109,1109,1109,1109,1109,1109,1109,881,882,883,884,885,886,887,888,1109,1109,1109,1109,1109,1109,1109,1109,1109,1109,1109,1109,1109,1109,1109,1745,1746,1747,1748,1749,1750,1751,1752,1109,1109,1109,1109,1109,973,974,975,976,1109,1109,1109,1109,1109,1109,1109,1109,1109,1109,1109,1109,1109,1109,1109,929,930,931,932,933,934,935,936,1109,1109,1109,1109,1109,1109,1109,1117,1118,1119,1120,1109,1109,1109,1109,1109,977,978,979,980,981,982,983,984,1109,1109,1109,1109,1109,1109,1109,1109,1109,1109,1109,1109,1109,865,866,867,868,869,870,871,872,873,874,875,876,1109,1109,1109,1109,1109,973,974,975,976,1109,1109,1109,1109,1109,1105,1106,1107,1108,1109,1110,1111,1112,1113,1114,1115,1116,1109,1109,1109,1109,1109,1109,1109,1109,1109,1597,1598,1599,1600,1109,1109,1109,1109,1109,1109,1109,1109,1109,1109,1109,1109,1109,1109,1109,1109,1109,1109,1109,1109,1109,1109,1109,1109,1109,1109,1109,1109,1109,1109,1109,1109,1109,1109,1109,1109,1109,1109,1109,1109,1109,1109,1109,1109,977,978,979,980,981,982,983,984,1109,1109,1109,1109,1109,1109,1109,1109,1109,1109,1109,1109,1109,1109,1109,1109,1109,1109,1109,1109,1109,1249,1250,1251,1252,1253,1254,1255,1256,1257,1258,1259,1260,1109,1109,1109,1109,1109,1109,1109,1109,1109,1033,1034,1035,1036,1037,1038,1039,1040,1109,1109,1109,1109,1109,1109,1109,1109,1109,1109,1109,1109,1109,1109,1109,1109,1109,1109,1433,1434,1435,1436,1437,1438,1439,1440,1109,1109,1109,1109,1109,1273,1274,1275,1276,1277,1278,1279,1280,
965,965,965,965,965,965,965,965,929,930,931,932,933,934,935,936,965,965,965,965,965,965,965,965,965,965,965,965,965,965,965,1793,1794,1795,1796,1797,1798,1799,1800,965,965,965,965,965,1021,1022,1023,1024,965,965,965,965,965,965,965,965,965,965,965,965,965,965,965,977,978,979,980,981,982,983,984,965,965,965,965,965,965,965,973,974,975,976,965,965,965,965,965,1025,1026,1027,1028,1029,1030,1031,1032,965,965,965,965,965,965,965,965,965,965,965,965,965,913,914,915,916,917,918,919,920,921,922,923,924,965,965,965,965,965,1021,1022,1023,1024,965,965,965,965,965,1153,1154,1155,1156,1157,1158,1159,1160,1161,1162,1163,1164,965,965,965,965,965,965,965,965,965,1645,1646,1647,1648,965,965,965,965,965,965,965,965,965,965,965,965,965,965,965,965,965,965,965,965,965,965,965,965,965,965,965,965,965,965,965,965,965,965,965,965,965,965,965,965,965,965,965,965,1025,1026,1027,1028,1029,1030,1031,1032,965,965,965,965,965,965,965,965,965,965,965,965,965,965,965,965,965,965,965,965,965,1297,1298,1299,1300,1301,1302,1303,1304,1305,1306,1307,1308,965,965,965,965,965,965,965,965,965,1081,1082,1083,1084,1085,1086,1087,1088,965,965,965,965,965,965,965,965,965,965,965,965,965,965,965,965,965,965,1481,1482,1483,1484,1485,1486,1487,1488,965,965,965,965,965,1321,1322,1323,1324,1325,1326,1327,1328,
1013,1013,1013,1013,1013,1013,1013,1013,977,978,979,980,981,982,983,984,1013,1013,1013,1013,1013,1013,1013,1013,1013,1013,1013,1013,1013,1013,1013,1841,1842,1843,1844,1845,1846,1847,1848,1013,1013,1013,1013,1013,1069,1070,1071,1072,1013,1013,1013,1013,1013,1013,1013,1013,1013,1013,1013,1013,1013,1013,1013,1025,1026,1027,1028,1029,1030,1031,1032,1013,1013,1013,1013,1013,1013,1013,1021,1022,1023,1024,1013,1013,1013,1013,1013,1073,1074,1075,1076,1077,1078,1079,1080,1013,1013,1013,1013,1013,1013,1013,1013,1013,1013,1013,1013,1013,961,962,963,964,965,966,967,968,969,970,971,972,1013,1013,1013,1013,1013,1069,1070,1071,1072,1013,1013,1013,1013,1013,961,962,963,964,965,966,967,968,969,970,971,972,1013,1013,1013,1013,1013,1013,1013,1013,1013,1693,1694,1695,1696,1013,1013,1013,1013,1013,1013,1013,1013,1013,1013,1013,1013,1013,1013,1013,1013,1013,1013,1013,1013,1013,1013,1013,1013,1013,1013,1013,1013,1013,1013,1013,1013,1013,1013,1013,1013,1013,1013,1013,1013,1013,1013,1013,1013,1073,1074,1075,1076,1077,1078,1079,1080,1013,1013,1013,1013,1013,1013,1013,1013,1013,1013,1013,1013,1013,1013,1013,1013,1013,1013,1013,1013,1013,1013,1013,1013,1013,1013,1013,1013,1013,1013,1013,1013,1013,1013,1013,1013,1013,1013,1013,1013,1013,1013,1013,1013,1013,1013,1013,1013,1013,1013,1013,1013,1013,1013,1013,1013,1013,1013,1013,1013,1013,1013,1013,1013,1013,1013,1013,1013,1529,1530,1531,1532,1533,1534,1535,1536,1013,1013,1013,1013,1013,1369,1370,1371,1372,1373,1374,1375,1376,
1061,1061,1061,1061,1061,1061,1061,1061,1025,1026,1027,1028,1029,1030,1031,1032,1061,1061,1061,1061,1061,1061,1061,1061,1061,1061,1061,1061,1061,1061,1061,1889,1890,1891,1892,1893,1894,1895,1896,1061,1061,1061,1061,1061,1117,1118,1119,1120,1061,1061,1061,1061,1061,1061,1061,1061,1061,1061,1061,1061,1061,1061,1061,1073,1074,1075,1076,1077,1078,1079,1080,1061,1061,1061,1061,1061,1061,1061,1069,1070,1071,1072,1061,1061,1061,1061,1061,1121,1122,1123,1124,1125,1126,1127,1128,1061,1061,1061,1061,1061,1061,1061,1061,1061,1061,1061,1061,1061,1009,1010,1011,1012,1013,1014,1015,1016,1017,1018,1019,1020,1061,1061,1061,1061,1061,1117,1118,1119,1120,1061,1061,1061,1061,1061,1009,1010,1011,1012,1013,1014,1015,1016,1017,1018,1019,1020,1061,1061,1061,1061,1061,1061,1061,1061,1061,1741,1742,1743,1744,1061,1061,1061,1061,1061,1061,1061,1061,1061,1061,1061,1061,1061,1061,1061,1061,1061,1061,1061,1061,1061,1061,1061,1061,1061,1061,1061,1061,1061,1061,1061,1061,1061,1061,1061,1061,1061,1061,1061,1061,1061,1061,1061,1061,1121,1122,1123,1124,1125,1126,1127,1128,1061,1061,1061,1061,1061,1061,1061,1061,1061,1061,1061,1061,1061,1061,1061,1061,1061,1061,1061,1061,1061,1061,1061,1061,1061,1061,1061,1061,1061,1061,1061,1061,1061,1061,1061,1061,1061,1061,1061,1061,1061,1061,1061,1061,1061,1061,1061,1061,1061,1061,1061,1061,1061,1061,1061,1061,1061,1061,1061,1061,1061,1061,1061,1061,1061,1061,1061,1061,1061,1061,1061,1061,1061,1061,1061,1061,1061,1061,1061,1061,1061,1417,1418,1419,1420,1421,1422,1423,1424,
1109,1109,1109,1109,1109,1109,1109,1109,1073,1074,1075,1076,1077,1078,1079,1080,1109,1109,1109,1109,1109,1109,1109,1109,1109,1109,1109,1109,1109,1109,1109,1109,1109,1109,1109,1109,1109,1109,1109,1109,1109,1109,1109,1109,1165,1166,1167,1168,1109,1109,1109,1109,1109,1109,1109,1109,1109,1109,1109,1109,1109,1109,1109,1121,1122,1123,1124,1125,1126,1127,1128,1109,1109,1109,1109,1109,1109,1109,1117,1118,1119,1120,1109,1109,1109,1109,1109,1109,1109,1109,1109,1109,1109,1109,1109,1109,1109,1109,1109,1109,1109,1109,1109,1109,1109,1109,1109,1109,1057,1058,1059,1060,1061,1062,1063,1064,1065,1066,1067,1068,1109,1109,1109,1109,1109,1165,1166,1167,1168,1109,1109,1109,1109,1109,1057,1058,1059,1060,1061,1062,1063,1064,1065,1066,1067,1068,1109,1109,1109,1109,1109,1109,1109,1109,1109,1789,1790,1791,1792,1109,1109,1109,1109,1109,1109,1109,1109,1109,1109,1109,1109,1109,1109,1109,1109,1109,1109,1109,1109,1109,1109,1109,1109,1109,1109,1109,1109,1109,1109,1109,1109,1109,1109,1109,1109,1109,1109,1109,1109,1109,1109,1109,1109,1109,1109,1109,1109,1109,1109,1109,1109,1109,1109,1109,1109,1109,1109,1109,1109,1109,1109,1109,1109,1109,1109,1109,1109,1109,1109,1109,1109,1109,1109,1109,1109,1109,1109,1109,1109,1109,1109,1109,1109,1109,1109,1109,1109,1109,1109,1109,1109,1109,1109,1109,1109,1109,1109,1109,1109,1109,1109,1109,1109,1109,1109,1109,1109,1109,1109,1109,1109,1109,1109,1109,1109,1109,1109,1109,1109,1109,1109,1109,1109,1109,1109,1109,1109,1109,1109,1109,1109,1109,1465,1466,1467,1468,1469,1470,1471,1472,
965,965,965,965,965,965,965,965,1121,1122,1123,1124,1125,1126,1127,1128,965,965,965,965,965,965,965,965,965,965,965,965,965,965,965,965,965,965,965,965,965,965,965,965,965,965,965,965,1213,1214,1215,1216,965,965,965,965,965,965,965,965,965,965,965,965,965,965,965,965,965,965,965,965,965,965,965,965,965,965,965,965,965,965,1165,1166,1167,1168,965,965,965,965,965,965,965,965,965,965,965,965,965,965,965,965,965,965,965,965,965,965,965,965,965,965,1105,1106,1107,1108,1109,1110,1111,1112,1113,1114,1115,1116,965,965,965,965,965,1213,1214,1215,1216,965,965,965,965,965,1105,1106,1107,1108,1109,1110,1111,1112,1113,1114,1115,1116,965,965,965,965,965,965,965,965,965,1837,1838,1839,1840,965,965,965,965,965,965,965,965,965,965,965,965,965,965,965,965,965,965,965,965,965,965,965,965,965,965,965,965,965,965,965,965,965,965,965,965,965,965,965,965,965,965,965,965,965,965,965,965,965,965,965,965,965,965,965,965,965,965,965,965,965,965,965,965,965,965,965,965,965,965,965,965,965,965,965,965,965,965,965,965,965,965,965,965,965,965,965,965,965,965,965,965,965,965,965,965,965,965,965,965,965,965,965,965,965,965,965,965,965,965,965,965,965,965,965,965,965,965,965,965,965,965,965,965,965,965,965,965,965,965,965,965,965,1513,1514,1515,1516,1517,1518,1519,1520,
1013,1013,1013,1013,1013,1013,1013,1013,1013,1013,1013,1013,1013,1013,1013,1013,1013,1013,1013,1013,1013,1013,1013,1013,1013,1013,1013,1013,1013,1013,1013,1013,1013,1013,1013,1013,1013,1013,1013,1013,1013,1013,1013,1013,1261,1262,1263,1264,1013,1013,1013,1013,1013,1013,1013,1013,1013,1013,1013,1013,1013,1013,1013,1013,1013,1013,1013,1013,1013,1013,1013,1013,1013,1013,1013,1013,1013,1013,973,974,975,976,1013,1013,1013,1013,1013,1013,1013,1013,1013,1013,1013,1013,1013,1013,1013,1013,1013,1013,1013,1013,1013,1013,1013,1013,1013,1013,1153,1154,1155,1156,1157,1158,1159,1160,1161,1162,1163,1164,1013,1013,1013,1013,1013,1261,1262,1263,1264,1013,1013,1013,1013,1013,1153,1154,1155,1156,1157,1158,1159,1160,1161,1162,1163,1164,1013,1013,1013,1013,1013,1013,1013,1013,1013,1885,1886,1887,1888,1013,1013,1013,1013,1013,1013,1013,1013,1013,1013,1013,1013,1013,1013,1013,1013,1013,1013,1013,1013,1013,1013,1013,1013,1013,1013,1013,1013,1013,1013,1013,1013,1013,1013,1013,1013,1013,1013,1013,1013,1013,1013,1013,1013,1013,1013,1013,1013,1013,1013,1013,1013,1013,1013,1013,1013,1013,1013,1013,1013,1013,1013,1013,1013,1013,1013,1013,1013,1013,1013,1013,1013,1013,1013,1013,1013,1013,1013,1013,1013,1013,1013,1013,1013,1013,1013,1013,1013,1013,1013,1013,1013,1013,1013,1013,1013,1013,1013,1013,1013,1013,1013,1013,1013,1013,1013,1013,1013,1013,1013,1013,1013,1013,1013,1013,1013,1013,1013,1013,1013,1013,1013,1013,1013,1013,1013,1013,1013,1013,1013,1013,1013,1013,1177,1178,1179,1180,1181,1182,1183,1184,
1061,1061,1061,1061,1061,1061,1061,1061,1061,1061,1061,1061,1061,1061,1061,1061,1061,1061,1061,1061,1061,1061,1061,1061,1061,1061,1061,1061,1061,1061,1061,1061,1061,1061,1061,1061,1061,1061,1061,1061,1061,1061,1061,1061,1309,1310,1311,1312,1061,1061,1061,1061,1061,1061,1061,1061,1061,1061,1061,1061,1061,1061,1061,1061,1061,1061,1061,1061,1061,1061,1061,1061,1061,1061,1061,1061,1061,1061,1021,1022,1023,1024,1061,1061,1061,1061,1061,1061,1061,1061,1061,1061,1061,1061,1061,1061,1061,1061,1061,1061,1061,1061,1061,1061,1061,1061,1061,1061,1201,1202,1203,1204,1205,1206,1207,1208,1209,1210,1211,1212,1061,1061,1061,1061,1061,1309,1310,1311,1312,1061,1061,1061,1061,1061,961,962,963,964,965,966,967,968,969,970,971,972,1061,1061,1061,1061,1061,1061,1061,1061,1061,1933,1934,1935,1936,1061,1061,1061,1061,1061,1061,1061,1061,1061,1061,1061,1061,1061,1061,1061,1061,1061,1061,1061,1061,1061,1061,1061,1061,1061,1061,1061,1061,1061,1061,1061,1061,1061,1061,1061,1061,1061,1061,1061,1061,1061,1061,1061,1061,1061,1061,1061,1061,1061,1061,1061,1061,1061,1061,1061,1061,1061,1061,1061,1061,1061,1061,1061,1061,1061,1061,1061,1061,1061,1061,1061,1061,1061,1061,1061,1061,1061,1061,1061,1061,1061,1061,1061,1061,1061,1061,1061,1061,1061,1061,1061,1061,1061,1061,1061,1061,1061,1061,1061,1061,1061,1061,1061,1061,1061,1061,1061,1061,1061,1061,1061,1061,1061,1061,1061,1061,1061,1061,1061,1061,1061,1061,1061,1061,1061,1061,1061,1061,1061,1061,1061,1061,1061,1225,1226,1227,1228,1229,1230,1231,1232
</data>
 </layer>
 <objectgroup id="13" name="TrollZones"/>
 <objectgroup id="14" name="Boxes"/>
 <objectgroup id="12" name="Triggers"/>
 <objectgroup id="8" name="Water"/>
 <objectgroup id="23" name="CutsceneData"/>
 <objectgroup id="9" name="Crab"/>
 <objectgroup id="7" name="Shell"/>
 <objectgroup id="3" name="Objects"/>
 <objectgroup id="22" name="Batman"/>
 <objectgroup id="5" name="Platforms"/>
 <objectgroup id="6" name="Collectables"/>
 <objectgroup id="25" name="Flag"/>
 <objectgroup id="11" name="Traps"/>
</map>
